;FLAVOR:Marlin
;TIME:3657
;Filament used: 3.69105m
;Layer height: 0.28
;MINX:125.7
;MINY:111.7
;MINZ:0.28
;MAXX:174.3
;MAXY:188.3
;MAXZ:14
;Generated with Cura_SteamEngine 4.9.0
M140 S60
M105
M190 S60
M104 S200
M105
M109 S200
M82 ;absolute extrusion mode
M201 X500.00 Y500.00 Z100.00 E5000.00 ;Setup machine max acceleration
M203 X500.00 Y500.00 Z10.00 E50.00 ;Setup machine max feedrate
M204 P500.00 R1000.00 T500.00 ;Setup Print/Retract/Travel acceleration
M205 X8.00 Y8.00 Z0.40 E5.00 ;Setup Jerk
M220 S100 ;Reset Feedrate
M221 S100 ;Reset Flowrate

G28 ;Home
G29 ;Auto bed Level

G92 E0 ;Reset Extruder
G1 Z2.0 F3000 ;Move Z Axis up
G1 X10.1 Y20 Z0.28 F5000.0 ;Move to start position
G1 X10.1 Y200.0 Z0.28 F1500.0 E15 ;Draw the first line
G1 X10.4 Y200.0 Z0.28 F5000.0 ;Move to side a little
G1 X10.4 Y20 Z0.28 F1500.0 E30 ;Draw the second line
G92 E0 ;Reset Extruder
G1 Z2.0 F3000 ;Move Z Axis up

G92 E0
G92 E0
G1 F1500 E-6.5
;LAYER_COUNT:50
;LAYER:0
M107
G0 F6000 X127.58 Y114.422 Z0.28
;TYPE:SKIRT
G1 F1500 E0
G1 F1200 X128.123 Y113.849 E0.03676
G1 X128.722 Y113.334 E0.07354
G1 X129.37 Y112.883 E0.1103
G1 X130.061 Y112.499 E0.14711
G1 X130.786 Y112.187 E0.18387
G1 X131.539 Y111.95 E0.22063
G1 X132.313 Y111.791 E0.25742
G1 X133.098 Y111.71 E0.29417
G1 X133.5 Y111.7 E0.31289
G1 X166.5 Y111.7 E1.84951
G1 X167.289 Y111.74 E1.88629
G1 X168.069 Y111.859 E1.92304
G1 X168.834 Y112.057 E1.95983
G1 X169.574 Y112.331 E1.99657
G1 X170.283 Y112.679 E2.03335
G1 X170.954 Y113.097 E2.07016
G1 X171.578 Y113.58 E2.10691
G1 X172.151 Y114.123 E2.14366
G1 X172.666 Y114.722 E2.18045
G1 X173.117 Y115.37 E2.21721
G1 X173.501 Y116.061 E2.25402
G1 X173.813 Y116.786 E2.29077
G1 X174.05 Y117.539 E2.32753
G1 X174.209 Y118.313 E2.36432
G1 X174.29 Y119.098 E2.40107
G1 X174.3 Y119.5 E2.4198
G1 X174.3 Y180.5 E5.26021
G1 X174.26 Y181.289 E5.297
G1 X174.141 Y182.069 E5.33374
G1 X173.943 Y182.834 E5.37053
G1 X173.669 Y183.574 E5.40728
G1 X173.321 Y184.283 E5.44405
G1 X172.903 Y184.954 E5.48086
G1 X172.42 Y185.578 E5.51761
G1 X171.877 Y186.151 E5.55437
G1 X171.278 Y186.666 E5.59115
G1 X170.63 Y187.117 E5.62791
G1 X169.939 Y187.501 E5.66472
G1 X169.214 Y187.813 E5.70148
G1 X168.461 Y188.05 E5.73823
G1 X167.687 Y188.209 E5.77503
G1 X166.902 Y188.29 E5.81177
G1 X166.5 Y188.3 E5.8305
G1 X133.5 Y188.3 E7.36712
G1 X132.711 Y188.26 E7.4039
G1 X131.931 Y188.141 E7.44064
G1 X131.166 Y187.943 E7.47744
G1 X130.426 Y187.669 E7.51418
G1 X129.717 Y187.321 E7.55096
G1 X129.046 Y186.903 E7.58777
G1 X128.422 Y186.42 E7.62451
G1 X127.849 Y185.877 E7.66127
G1 X127.334 Y185.278 E7.69806
G1 X126.883 Y184.63 E7.73482
G1 X126.499 Y183.939 E7.77163
G1 X126.187 Y183.214 E7.80838
G1 X125.95 Y182.461 E7.84514
G1 X125.791 Y181.687 E7.88193
G1 X125.71 Y180.902 E7.91868
G1 X125.7 Y180.5 E7.9374
G1 X125.7 Y119.5 E10.77782
G1 X125.74 Y118.711 E10.81461
G1 X125.859 Y117.931 E10.85135
G1 X126.057 Y117.166 E10.88814
G1 X126.331 Y116.426 E10.92489
G1 X126.679 Y115.717 E10.96166
G1 X127.097 Y115.046 E10.99847
G1 X127.58 Y114.422 E11.03522
G0 F6000 X127.975 Y114.577
G1 F1200 X128.516 Y114.03 E11.07104
G1 X129.111 Y113.542 E11.10687
G1 X129.753 Y113.119 E11.14267
G1 X130.436 Y112.764 E11.17852
G1 X131.151 Y112.483 E11.21429
G1 X131.893 Y112.277 E11.25014
G1 X132.651 Y112.149 E11.28594
G1 X133.5 Y112.1 E11.32554
G1 X166.5 Y112.1 E12.86216
G1 X167.268 Y112.14 E12.89797
G1 X168.028 Y112.259 E12.93379
G1 X168.771 Y112.457 E12.96959
G1 X169.49 Y112.731 E13.00542
G1 X170.176 Y113.078 E13.04122
G1 X170.823 Y113.494 E13.07703
G1 X171.423 Y113.975 E13.11284
G1 X171.97 Y114.516 E13.14867
G1 X172.458 Y115.111 E13.1845
G1 X172.881 Y115.753 E13.2203
G1 X173.236 Y116.436 E13.25614
G1 X173.517 Y117.151 E13.29191
G1 X173.723 Y117.893 E13.32777
G1 X173.851 Y118.651 E13.36357
G1 X173.9 Y119.5 E13.40316
G1 X173.9 Y180.5 E16.24358
G1 X173.86 Y181.268 E16.27939
G1 X173.741 Y182.028 E16.31521
G1 X173.543 Y182.771 E16.35101
G1 X173.269 Y183.49 E16.38684
G1 X172.922 Y184.176 E16.42264
G1 X172.506 Y184.823 E16.45846
G1 X172.025 Y185.423 E16.49426
G1 X171.484 Y185.97 E16.53009
G1 X170.889 Y186.458 E16.56592
G1 X170.247 Y186.881 E16.60172
G1 X169.564 Y187.236 E16.63756
G1 X168.849 Y187.517 E16.67334
G1 X168.107 Y187.723 E16.70919
G1 X167.349 Y187.851 E16.74499
G1 X166.5 Y187.9 E16.78459
G1 X133.5 Y187.9 E18.32121
G1 X132.732 Y187.86 E18.35702
G1 X131.972 Y187.741 E18.39284
G1 X131.229 Y187.543 E18.42864
G1 X130.51 Y187.269 E18.46447
G1 X129.824 Y186.922 E18.50027
G1 X129.177 Y186.506 E18.53608
G1 X128.577 Y186.025 E18.57189
G1 X128.03 Y185.484 E18.60771
G1 X127.542 Y184.889 E18.64355
G1 X127.119 Y184.247 E18.67935
G1 X126.764 Y183.564 E18.71519
G1 X126.483 Y182.849 E18.75096
G1 X126.277 Y182.107 E18.78682
G1 X126.149 Y181.349 E18.82261
G1 X126.1 Y180.5 E18.86221
G1 X126.1 Y119.5 E21.70263
G1 X126.14 Y118.732 E21.73844
G1 X126.259 Y117.972 E21.77426
G1 X126.457 Y117.229 E21.81006
G1 X126.731 Y116.51 E21.84589
G1 X127.078 Y115.824 E21.88169
G1 X127.494 Y115.177 E21.9175
G1 X127.975 Y114.577 E21.95331
G0 F6000 X128.371 Y114.737
G1 F1200 X128.908 Y114.216 E21.98815
G1 X129.498 Y113.757 E22.02296
G1 X130.134 Y113.362 E22.05782
G1 X130.808 Y113.038 E22.09264
G1 X131.513 Y112.788 E22.12747
G1 X132.241 Y112.614 E22.16233
G1 X132.983 Y112.519 E22.19716
G1 X133.5 Y112.5 E22.22125
G1 X166.5 Y112.5 E23.75787
G1 X167.247 Y112.54 E23.7927
G1 X167.985 Y112.659 E23.82751
G1 X168.707 Y112.857 E23.86237
G1 X169.403 Y113.13 E23.89718
G1 X170.066 Y113.477 E23.93203
G1 X170.689 Y113.892 E23.96688
G1 X171.263 Y114.371 E24.0017
G1 X171.784 Y114.908 E24.03654
G1 X172.243 Y115.498 E24.07134
G1 X172.638 Y116.134 E24.10621
G1 X172.962 Y116.808 E24.14103
G1 X173.212 Y117.513 E24.17586
G1 X173.386 Y118.241 E24.21071
G1 X173.481 Y118.983 E24.24554
G1 X173.5 Y119.5 E24.26963
G1 X173.5 Y180.5 E27.11005
G1 X173.46 Y181.247 E27.14488
G1 X173.341 Y181.985 E27.17969
G1 X173.143 Y182.707 E27.21455
G1 X172.87 Y183.403 E27.24936
G1 X172.523 Y184.066 E27.28421
G1 X172.108 Y184.689 E27.31907
G1 X171.629 Y185.263 E27.35388
G1 X171.092 Y185.784 E27.38872
G1 X170.502 Y186.243 E27.42352
G1 X169.866 Y186.638 E27.45839
G1 X169.192 Y186.962 E27.49321
G1 X168.487 Y187.212 E27.52804
G1 X167.759 Y187.386 E27.56289
G1 X167.017 Y187.481 E27.59773
G1 X166.5 Y187.5 E27.62181
G1 X133.5 Y187.5 E29.15843
G1 X132.753 Y187.46 E29.19327
G1 X132.015 Y187.341 E29.22807
G1 X131.293 Y187.143 E29.26294
G1 X130.597 Y186.87 E29.29775
G1 X129.934 Y186.523 E29.33259
G1 X129.311 Y186.108 E29.36745
G1 X128.737 Y185.629 E29.40226
G1 X128.216 Y185.092 E29.4371
G1 X127.757 Y184.502 E29.47191
G1 X127.362 Y183.866 E29.50677
G1 X127.038 Y183.192 E29.54159
G1 X126.788 Y182.487 E29.57642
G1 X126.614 Y181.759 E29.61128
G1 X126.519 Y181.017 E29.64611
G1 X126.5 Y180.5 E29.6702
G1 X126.5 Y119.5 E32.51061
G1 X126.54 Y118.753 E32.54545
G1 X126.659 Y118.015 E32.58026
G1 X126.857 Y117.293 E32.61512
G1 X127.13 Y116.597 E32.64993
G1 X127.477 Y115.934 E32.68477
G1 X127.892 Y115.311 E32.71963
G1 X128.371 Y114.737 E32.75444
G0 F6000 X128.289 Y115.45
G1 F1200 X128.765 Y114.902 E32.78824
G1 X129.299 Y114.409 E32.82208
G1 X129.884 Y113.979 E32.85589
G1 X130.513 Y113.615 E32.88973
G1 X131.178 Y113.322 E32.92357
G1 X131.871 Y113.104 E32.9574
G1 X132.583 Y112.964 E32.99118
G1 X133.5 Y112.9 E33.03399
G1 X166.5 Y112.9 E34.57061
G1 X167.225 Y112.94 E34.60442
G1 X167.942 Y113.059 E34.63826
G1 X168.641 Y113.257 E34.67209
G1 X169.314 Y113.53 E34.70591
G1 X169.953 Y113.875 E34.73972
G1 X170.55 Y114.289 E34.77355
G1 X171.098 Y114.765 E34.80735
G1 X171.591 Y115.299 E34.84119
G1 X172.021 Y115.884 E34.875
G1 X172.385 Y116.513 E34.90884
G1 X172.678 Y117.178 E34.94267
G1 X172.896 Y117.871 E34.9765
G1 X173.036 Y118.583 E35.01029
G1 X173.1 Y119.5 E35.05309
G1 X173.1 Y180.5 E37.89351
G1 X173.06 Y181.225 E37.92732
G1 X172.941 Y181.942 E37.96116
G1 X172.743 Y182.641 E37.99499
G1 X172.47 Y183.314 E38.02881
G1 X172.125 Y183.953 E38.06262
G1 X171.711 Y184.55 E38.09645
G1 X171.235 Y185.098 E38.13025
G1 X170.701 Y185.591 E38.16409
G1 X170.116 Y186.021 E38.1979
G1 X169.487 Y186.385 E38.23174
G1 X168.822 Y186.678 E38.26558
G1 X168.129 Y186.896 E38.29941
G1 X167.417 Y187.036 E38.3332
G1 X166.5 Y187.1 E38.376
G1 X133.5 Y187.1 E39.91262
G1 X132.775 Y187.06 E39.94643
G1 X132.058 Y186.941 E39.98027
G1 X131.359 Y186.743 E40.0141
G1 X130.686 Y186.47 E40.04792
G1 X130.047 Y186.125 E40.08173
G1 X129.45 Y185.711 E40.11556
G1 X128.902 Y185.235 E40.14936
G1 X128.409 Y184.701 E40.1832
G1 X127.979 Y184.116 E40.21701
G1 X127.615 Y183.487 E40.25085
G1 X127.322 Y182.822 E40.28469
G1 X127.104 Y182.129 E40.31851
G1 X126.964 Y181.417 E40.3523
G1 X126.9 Y180.5 E40.39511
G1 X126.9 Y119.5 E43.23552
G1 X126.94 Y118.775 E43.26933
G1 X127.059 Y118.058 E43.30317
G1 X127.257 Y117.359 E43.337
G1 X127.53 Y116.686 E43.37082
G1 X127.875 Y116.047 E43.40464
G1 X128.289 Y115.45 E43.43846
G0 F6000 X128.685 Y115.594
G1 F1200 X129.159 Y115.073 E43.47126
G1 X129.689 Y114.609 E43.50406
G1 X130.268 Y114.209 E43.53683
G1 X130.889 Y113.877 E43.56962
G1 X131.543 Y113.617 E43.60239
G1 X132.223 Y113.433 E43.63519
G1 X132.919 Y113.327 E43.66798
G1 X133.5 Y113.3 E43.69506
G1 X166.5 Y113.3 E45.23168
G1 X167.203 Y113.34 E45.26447
G1 X167.897 Y113.459 E45.29725
G1 X168.572 Y113.657 E45.33001
G1 X169.221 Y113.929 E45.36278
G1 X169.835 Y114.274 E45.39557
G1 X170.406 Y114.685 E45.42833
G1 X170.927 Y115.159 E45.46113
G1 X171.391 Y115.689 E45.49393
G1 X171.791 Y116.268 E45.5267
G1 X172.123 Y116.889 E45.55949
G1 X172.383 Y117.543 E45.59226
G1 X172.567 Y118.223 E45.62506
G1 X172.673 Y118.919 E45.65784
G1 X172.7 Y119.5 E45.68492
G1 X172.7 Y180.5 E48.52534
G1 X172.66 Y181.203 E48.55813
G1 X172.541 Y181.897 E48.59091
G1 X172.343 Y182.572 E48.62367
G1 X172.071 Y183.221 E48.65644
G1 X171.726 Y183.835 E48.68923
G1 X171.315 Y184.406 E48.72199
G1 X170.841 Y184.927 E48.75479
G1 X170.311 Y185.391 E48.78759
G1 X169.732 Y185.791 E48.82036
G1 X169.111 Y186.123 E48.85315
G1 X168.457 Y186.383 E48.88592
G1 X167.777 Y186.567 E48.91872
G1 X167.081 Y186.673 E48.9515
G1 X166.5 Y186.7 E48.97859
G1 X133.5 Y186.7 E50.5152
G1 X132.797 Y186.66 E50.54799
G1 X132.103 Y186.541 E50.58078
G1 X131.428 Y186.343 E50.61353
G1 X130.779 Y186.071 E50.6463
G1 X130.165 Y185.726 E50.6791
G1 X129.594 Y185.315 E50.71186
G1 X129.073 Y184.841 E50.74465
G1 X128.609 Y184.311 E50.77745
G1 X128.209 Y183.732 E50.81022
G1 X127.877 Y183.111 E50.84301
G1 X127.617 Y182.457 E50.87578
G1 X127.433 Y181.777 E50.90859
G1 X127.327 Y181.081 E50.94137
G1 X127.3 Y180.5 E50.96845
G1 X127.3 Y119.5 E53.80887
G1 X127.34 Y118.797 E53.84165
G1 X127.459 Y118.103 E53.87444
G1 X127.657 Y117.428 E53.9072
G1 X127.929 Y116.779 E53.93996
G1 X128.274 Y116.165 E53.97276
G1 X128.685 Y115.594 E54.00552
G0 F6000 X129.082 Y115.742
G1 F1200 X129.553 Y115.251 E54.0372
G1 X130.078 Y114.817 E54.06892
G1 X130.65 Y114.448 E54.10061
G1 X131.262 Y114.149 E54.13233
G1 X131.904 Y113.924 E54.16401
G1 X132.569 Y113.775 E54.19574
G1 X133.5 Y113.7 E54.23923
G1 X166.5 Y113.7 E55.77585
G1 X167.18 Y113.74 E55.80757
G1 X167.85 Y113.859 E55.83925
G1 X168.502 Y114.056 E55.87097
G1 X169.126 Y114.328 E55.90267
G1 X169.714 Y114.672 E55.93439
G1 X170.258 Y115.082 E55.96611
G1 X170.749 Y115.553 E55.99779
G1 X171.183 Y116.078 E56.02951
G1 X171.552 Y116.65 E56.0612
G1 X171.851 Y117.262 E56.09292
G1 X172.076 Y117.904 E56.1246
G1 X172.225 Y118.569 E56.15633
G1 X172.3 Y119.5 E56.19982
G1 X172.3 Y180.5 E59.04024
G1 X172.26 Y181.18 E59.07195
G1 X172.141 Y181.85 E59.10364
G1 X171.944 Y182.502 E59.13536
G1 X171.672 Y183.126 E59.16705
G1 X171.328 Y183.714 E59.19877
G1 X170.918 Y184.258 E59.23049
G1 X170.447 Y184.749 E59.26217
G1 X169.922 Y185.183 E59.29389
G1 X169.35 Y185.552 E59.32559
G1 X168.738 Y185.851 E59.3573
G1 X168.096 Y186.076 E59.38898
G1 X167.431 Y186.225 E59.42071
G1 X166.5 Y186.3 E59.46421
G1 X133.5 Y186.3 E61.00082
G1 X132.82 Y186.26 E61.03254
G1 X132.15 Y186.141 E61.06423
G1 X131.498 Y185.944 E61.09594
G1 X130.874 Y185.672 E61.12764
G1 X130.286 Y185.328 E61.15936
G1 X129.742 Y184.918 E61.19108
G1 X129.251 Y184.447 E61.22276
G1 X128.817 Y183.922 E61.25448
G1 X128.448 Y183.35 E61.28618
G1 X128.149 Y182.738 E61.31789
G1 X127.924 Y182.096 E61.34957
G1 X127.775 Y181.431 E61.3813
G1 X127.7 Y180.5 E61.42479
G1 X127.7 Y119.5 E64.26521
G1 X127.74 Y118.82 E64.29693
G1 X127.859 Y118.15 E64.32861
G1 X128.056 Y117.498 E64.36033
G1 X128.328 Y116.874 E64.39203
G1 X128.672 Y116.286 E64.42375
G1 X129.082 Y115.742 E64.45547
G0 F6000 X129.478 Y115.897
G1 F1200 X129.945 Y115.435 E64.48606
G1 X130.465 Y115.034 E64.51663
G1 X131.029 Y114.698 E64.5472
G1 X131.631 Y114.434 E64.57781
G1 X132.26 Y114.244 E64.60841
G1 X132.907 Y114.133 E64.63897
G1 X133.5 Y114.1 E64.66663
G1 X166.5 Y114.1 E66.20325
G1 X167.156 Y114.14 E66.23385
G1 X167.802 Y114.259 E66.26444
G1 X168.429 Y114.456 E66.29504
G1 X169.027 Y114.728 E66.32563
G1 X169.588 Y115.07 E66.35622
G1 X170.103 Y115.478 E66.38682
G1 X170.565 Y115.945 E66.41741
G1 X170.966 Y116.465 E66.44798
G1 X171.302 Y117.029 E66.47855
G1 X171.566 Y117.631 E66.50916
G1 X171.756 Y118.26 E66.53976
G1 X171.867 Y118.907 E66.57032
G1 X171.9 Y119.5 E66.59798
G1 X171.9 Y180.5 E69.4384
G1 X171.86 Y181.156 E69.469
G1 X171.741 Y181.802 E69.49959
G1 X171.544 Y182.429 E69.53019
G1 X171.272 Y183.027 E69.56078
G1 X170.93 Y183.588 E69.59137
G1 X170.522 Y184.103 E69.62197
G1 X170.055 Y184.565 E69.65256
G1 X169.535 Y184.966 E69.68313
G1 X168.971 Y185.302 E69.7137
G1 X168.369 Y185.566 E69.74431
G1 X167.74 Y185.756 E69.77491
G1 X167.093 Y185.867 E69.80547
G1 X166.5 Y185.9 E69.83313
G1 X133.5 Y185.9 E71.36975
G1 X132.844 Y185.86 E71.40035
G1 X132.198 Y185.741 E71.43094
G1 X131.571 Y185.544 E71.46154
G1 X130.973 Y185.272 E71.49213
G1 X130.412 Y184.93 E71.52272
G1 X129.897 Y184.522 E71.55332
G1 X129.435 Y184.055 E71.58391
G1 X129.034 Y183.535 E71.61448
G1 X128.698 Y182.971 E71.64505
G1 X128.434 Y182.369 E71.67566
G1 X128.244 Y181.74 E71.70626
G1 X128.133 Y181.093 E71.73682
G1 X128.1 Y180.5 E71.76448
G1 X128.1 Y119.5 E74.60489
G1 X128.14 Y118.844 E74.6355
G1 X128.259 Y118.198 E74.66608
G1 X128.456 Y117.571 E74.69669
G1 X128.728 Y116.973 E74.72728
G1 X129.07 Y116.412 E74.75787
G1 X129.478 Y115.897 E74.78847
G0 F6000 X129.873 Y116.059
G1 F1200 X130.336 Y115.629 E74.81789
G1 X130.85 Y115.26 E74.84735
G1 X131.406 Y114.96 E74.87677
G1 X131.995 Y114.732 E74.90618
G1 X132.609 Y114.58 E74.93563
G1 X133.5 Y114.5 E74.97729
G1 X166.5 Y114.5 E76.51391
G1 X167.131 Y114.54 E76.54335
G1 X167.752 Y114.659 E76.57279
G1 X168.352 Y114.856 E76.6022
G1 X168.924 Y115.127 E76.63167
G1 X169.456 Y115.467 E76.66107
G1 X169.941 Y115.873 E76.69052
G1 X170.371 Y116.336 E76.71994
G1 X170.74 Y116.85 E76.74941
G1 X171.04 Y117.406 E76.77882
G1 X171.268 Y117.995 E76.80823
G1 X171.42 Y118.609 E76.83769
G1 X171.5 Y119.5 E76.87934
G1 X171.5 Y180.5 E79.71976
G1 X171.46 Y181.131 E79.7492
G1 X171.341 Y181.752 E79.77864
G1 X171.144 Y182.352 E79.80805
G1 X170.873 Y182.924 E79.83752
G1 X170.533 Y183.456 E79.86692
G1 X170.127 Y183.941 E79.89637
G1 X169.664 Y184.371 E79.92579
G1 X169.15 Y184.74 E79.95526
G1 X168.594 Y185.04 E79.98467
G1 X168.005 Y185.268 E80.01408
G1 X167.391 Y185.42 E80.04354
G1 X166.5 Y185.5 E80.08519
G1 X133.5 Y185.5 E81.62181
G1 X132.869 Y185.46 E81.65125
G1 X132.248 Y185.341 E81.68069
G1 X131.648 Y185.144 E81.7101
G1 X131.076 Y184.873 E81.73957
G1 X130.544 Y184.533 E81.76897
G1 X130.059 Y184.127 E81.79842
G1 X129.629 Y183.664 E81.82785
G1 X129.26 Y183.15 E81.85731
G1 X128.96 Y182.594 E81.88673
G1 X128.732 Y182.005 E81.91614
G1 X128.58 Y181.391 E81.94559
G1 X128.5 Y180.5 E81.98725
G1 X128.5 Y119.5 E84.82766
G1 X128.54 Y118.869 E84.8571
G1 X128.659 Y118.248 E84.88655
G1 X128.856 Y117.648 E84.91595
G1 X129.127 Y117.076 E84.94542
G1 X129.467 Y116.544 E84.97482
G1 X129.873 Y116.059 E85.00428
G0 F6000 X129.865 Y116.681
G1 F1200 X130.267 Y116.228 E85.03248
G1 X130.725 Y115.831 E85.0607
G1 X131.232 Y115.498 E85.08894
G1 X131.778 Y115.234 E85.11718
G1 X132.354 Y115.045 E85.14541
G1 X132.95 Y114.933 E85.17365
G1 X133.5 Y114.9 E85.19931
G1 X166.5 Y114.9 E86.73593
G1 X167.105 Y114.94 E86.76416
G1 X167.699 Y115.059 E86.79237
