;FLAVOR:Marlin
;TIME:10822
;Filament used: 10.9009m
;Layer height: 0.28
;MINX:81.35
;MINY:86.2
;MINZ:0.28
;MAXX:174.05
;MAXY:213.8
;MAXZ:14.84
;Generated with Cura_SteamEngine 4.9.0
M140 S60
M105
M190 S60
M104 S200
M105
M109 S200
M82 ;absolute extrusion mode
M201 X500.00 Y500.00 Z100.00 E5000.00 ;Setup machine max acceleration
M203 X500.00 Y500.00 Z10.00 E50.00 ;Setup machine max feedrate
M204 P500.00 R1000.00 T500.00 ;Setup Print/Retract/Travel acceleration
M205 X8.00 Y8.00 Z0.40 E5.00 ;Setup Jerk
M220 S100 ;Reset Feedrate
M221 S100 ;Reset Flowrate

G28 ;Home
G29 ;Auto bed Level

G92 E0 ;Reset Extruder
G1 Z2.0 F3000 ;Move Z Axis up
G1 X10.1 Y20 Z0.28 F5000.0 ;Move to start position
G1 X10.1 Y200.0 Z0.28 F1500.0 E15 ;Draw the first line
G1 X10.4 Y200.0 Z0.28 F5000.0 ;Move to side a little
G1 X10.4 Y20 Z0.28 F1500.0 E30 ;Draw the second line
G92 E0 ;Reset Extruder
G1 Z2.0 F3000 ;Move Z Axis up

G92 E0
G92 E0
G1 F1500 E-6.5
;LAYER_COUNT:53
;LAYER:0
M107
G0 F6000 X83.752 Y90.485 Z0.28
;TYPE:SKIRT
G1 F1500 E0
G1 F1200 X84.338 Y89.955 E0.03679
G1 X84.974 Y89.488 E0.07353
G1 X85.654 Y89.087 E0.11029
G1 X86.372 Y88.757 E0.14709
G1 X87.119 Y88.502 E0.18384
G1 X87.888 Y88.323 E0.22061
G1 X87.938 Y88.317 E0.22295
G1 X88.338 Y87.955 E0.24807
G1 X88.974 Y87.488 E0.28481
G1 X89.654 Y87.087 E0.32157
G1 X90.372 Y86.757 E0.35837
G1 X91.119 Y86.502 E0.39512
G1 X91.888 Y86.323 E0.43189
G1 X92.672 Y86.223 E0.46869
G1 X93.267 Y86.2 E0.49642
G1 X133.533 Y86.2 E2.37137
G1 X134.322 Y86.24 E2.40816
G1 X135.102 Y86.359 E2.4449
G1 X135.867 Y86.557 E2.48169
G1 X136.607 Y86.831 E2.51843
G1 X137.316 Y87.179 E2.55521
G1 X137.987 Y87.597 E2.59202
G1 X138.611 Y88.08 E2.62877
G1 X139.048 Y88.485 E2.65651
G1 X139.165 Y88.602 E2.66421
G1 X139.695 Y89.188 E2.70101
G1 X140.162 Y89.824 E2.73775
G1 X140.563 Y90.504 E2.77451
G1 X140.893 Y91.222 E2.8113
G1 X141.148 Y91.969 E2.84806
G1 X141.327 Y92.738 E2.88482
G1 X141.427 Y93.522 E2.92162
G1 X141.45 Y94.117 E2.94935
G1 X141.45 Y112.2 E3.79137
G1 X166.133 Y112.2 E4.94071
G1 X166.922 Y112.24 E4.9775
G1 X167.702 Y112.359 E5.01424
G1 X168.467 Y112.557 E5.05104
G1 X169.207 Y112.831 E5.08778
G1 X169.916 Y113.179 E5.12456
G1 X170.587 Y113.597 E5.16137
G1 X171.211 Y114.08 E5.19811
G1 X171.648 Y114.485 E5.22585
G1 X171.765 Y114.602 E5.23356
G1 X172.295 Y115.188 E5.27035
G1 X172.762 Y115.824 E5.30709
G1 X173.163 Y116.504 E5.34385
G1 X173.493 Y117.222 E5.38065
G1 X173.748 Y117.969 E5.4174
G1 X173.927 Y118.738 E5.45416
G1 X174.027 Y119.522 E5.49097
G1 X174.05 Y120.117 E5.51869
G1 X174.05 Y179.883 E8.30165
G1 X174.01 Y180.672 E8.33843
G1 X173.891 Y181.452 E8.37517
G1 X173.693 Y182.217 E8.41197
G1 X173.419 Y182.957 E8.44871
G1 X173.071 Y183.666 E8.48549
G1 X172.653 Y184.337 E8.5223
G1 X172.17 Y184.961 E8.55905
G1 X171.765 Y185.398 E8.58679
G1 X171.648 Y185.515 E8.59449
G1 X171.062 Y186.045 E8.63128
G1 X170.426 Y186.512 E8.66803
G1 X169.746 Y186.913 E8.70478
G1 X169.028 Y187.243 E8.74158
G1 X168.281 Y187.498 E8.77833
G1 X167.512 Y187.677 E8.8151
G1 X166.728 Y187.777 E8.8519
G1 X166.133 Y187.8 E8.87963
G1 X141.45 Y187.8 E10.02897
G1 X141.45 Y205.883 E10.87099
G1 X141.41 Y206.672 E10.90778
G1 X141.291 Y207.452 E10.94452
G1 X141.093 Y208.217 E10.98131
G1 X140.819 Y208.957 E11.01806
G1 X140.471 Y209.666 E11.05483
G1 X140.053 Y210.337 E11.09165
G1 X139.57 Y210.961 E11.12839
G1 X139.165 Y211.398 E11.15613
G1 X139.048 Y211.515 E11.16384
G1 X138.462 Y212.045 E11.20063
G1 X137.826 Y212.512 E11.23737
G1 X137.146 Y212.913 E11.27413
G1 X136.428 Y213.243 E11.31092
G1 X135.681 Y213.498 E11.34768
G1 X134.912 Y213.677 E11.38444
G1 X134.128 Y213.777 E11.42125
G1 X133.533 Y213.8 E11.44897
G1 X103.767 Y213.8 E12.835
G1 X102.978 Y213.76 E12.87179
G1 X102.198 Y213.641 E12.90853
G1 X101.433 Y213.443 E12.94532
G1 X100.693 Y213.169 E12.98207
G1 X99.984 Y212.821 E13.01884
G1 X99.313 Y212.403 E13.05566
G1 X98.689 Y211.92 E13.0924
G1 X98.56 Y211.8 E13.1006
G1 X89.267 Y211.8 E13.53332
G1 X88.478 Y211.76 E13.57011
G1 X87.698 Y211.641 E13.60685
G1 X86.933 Y211.443 E13.64365
G1 X86.193 Y211.169 E13.68039
G1 X85.484 Y210.821 E13.71717
G1 X84.813 Y210.403 E13.75398
G1 X84.189 Y209.92 E13.79072
G1 X83.752 Y209.515 E13.81846
G1 X83.635 Y209.398 E13.82617
G1 X83.105 Y208.812 E13.86296
G1 X82.638 Y208.176 E13.8997
G1 X82.237 Y207.496 E13.93646
G1 X81.907 Y206.778 E13.97326
G1 X81.652 Y206.031 E14.01001
G1 X81.473 Y205.262 E14.04677
G1 X81.373 Y204.478 E14.08358
G1 X81.35 Y203.883 E14.1113
G1 X81.35 Y96.117 E19.12934
G1 X81.39 Y95.328 E19.16613
G1 X81.509 Y94.548 E19.20287
G1 X81.707 Y93.783 E19.23966
G1 X81.981 Y93.043 E19.27641
G1 X82.329 Y92.334 E19.31318
G1 X82.747 Y91.663 E19.34999
G1 X83.23 Y91.039 E19.38674
G1 X83.635 Y90.602 E19.41448
G1 X83.752 Y90.485 E19.42218
G0 F6000 X84.034 Y90.767
G1 F1200 X84.606 Y90.253 E19.45799
G1 X85.228 Y89.8 E19.49382
G1 X85.893 Y89.414 E19.52963
G1 X86.595 Y89.099 E19.56545
G1 X87.326 Y88.859 E19.60128
G1 X88.077 Y88.696 E19.63706
G1 X88.118 Y88.691 E19.63899
G1 X88.606 Y88.253 E19.66952
G1 X89.228 Y87.8 E19.70535
G1 X89.893 Y87.414 E19.74116
G1 X90.595 Y87.099 E19.77698
G1 X91.326 Y86.859 E19.81281
G1 X92.077 Y86.696 E19.84859
G1 X92.842 Y86.612 E19.88443
G1 X93.267 Y86.6 E19.90423
G1 X133.533 Y86.6 E21.77918
G1 X134.301 Y86.64 E21.81499
G1 X135.061 Y86.759 E21.85081
G1 X135.804 Y86.957 E21.88661
G1 X136.523 Y87.231 E21.92244
G1 X137.209 Y87.578 E21.95824
G1 X137.856 Y87.994 E21.99406
G1 X138.456 Y88.475 E22.02987
G1 X138.766 Y88.767 E22.0497
G1 X138.883 Y88.884 E22.0574
G1 X139.397 Y89.456 E22.09321
G1 X139.85 Y90.078 E22.12904
G1 X140.236 Y90.743 E22.16484
G1 X140.551 Y91.445 E22.20067
G1 X140.791 Y92.176 E22.2365
G1 X140.954 Y92.927 E22.27228
G1 X141.038 Y93.692 E22.30812
G1 X141.05 Y94.117 E22.32791
G1 X141.05 Y112.6 E23.18856
G1 X166.133 Y112.6 E24.35653
G1 X166.901 Y112.64 E24.39234
G1 X167.661 Y112.759 E24.42816
G1 X168.404 Y112.957 E24.46396
G1 X169.123 Y113.231 E24.49979
G1 X169.809 Y113.578 E24.53559
G1 X170.456 Y113.994 E24.57141
G1 X171.056 Y114.475 E24.60721
G1 X171.366 Y114.767 E24.62704
G1 X171.483 Y114.884 E24.63475
G1 X171.997 Y115.456 E24.67056
G1 X172.45 Y116.078 E24.70639
G1 X172.836 Y116.743 E24.74219
G1 X173.151 Y117.445 E24.77802
G1 X173.391 Y118.176 E24.81384
G1 X173.554 Y118.927 E24.84963
G1 X173.638 Y119.692 E24.88546
G1 X173.65 Y120.117 E24.90526
G1 X173.65 Y179.883 E27.68822
G1 X173.61 Y180.651 E27.72403
G1 X173.491 Y181.411 E27.75985
G1 X173.293 Y182.154 E27.79565
G1 X173.019 Y182.873 E27.83148
G1 X172.672 Y183.559 E27.86728
G1 X172.256 Y184.206 E27.90309
G1 X171.775 Y184.806 E27.9389
G1 X171.483 Y185.116 E27.95873
G1 X171.366 Y185.233 E27.96644
G1 X170.794 Y185.747 E28.00225
G1 X170.172 Y186.2 E28.03808
G1 X169.507 Y186.586 E28.07388
G1 X168.805 Y186.901 E28.10971
G1 X168.074 Y187.141 E28.14553
G1 X167.323 Y187.304 E28.18132
G1 X166.558 Y187.388 E28.21715
G1 X166.133 Y187.4 E28.23695
G1 X141.05 Y187.4 E29.40492
G1 X141.05 Y205.883 E30.26557
G1 X141.01 Y206.651 E30.30138
G1 X140.891 Y207.411 E30.3372
G1 X140.693 Y208.154 E30.373
G1 X140.419 Y208.873 E30.40883
G1 X140.072 Y209.559 E30.44463
G1 X139.656 Y210.206 E30.48044
G1 X139.175 Y210.806 E30.51625
G1 X138.883 Y211.116 E30.53608
G1 X138.766 Y211.233 E30.54379
G1 X138.194 Y211.747 E30.57959
G1 X137.572 Y212.2 E30.61542
G1 X136.907 Y212.586 E30.65123
G1 X136.205 Y212.901 E30.68706
G1 X135.474 Y213.141 E30.72288
G1 X134.723 Y213.304 E30.75867
G1 X133.958 Y213.388 E30.7945
G1 X133.533 Y213.4 E30.8143
G1 X103.767 Y213.4 E32.20033
G1 X102.999 Y213.36 E32.23614
G1 X102.239 Y213.241 E32.27196
G1 X101.496 Y213.043 E32.30776
G1 X100.777 Y212.769 E32.34359
G1 X100.091 Y212.422 E32.37939
G1 X99.444 Y212.006 E32.41521
G1 X98.844 Y211.525 E32.45101
G1 X98.711 Y211.4 E32.45951
G1 X89.267 Y211.4 E32.89926
G1 X88.499 Y211.36 E32.93507
G1 X87.739 Y211.241 E32.97089
G1 X86.996 Y211.043 E33.0067
G1 X86.277 Y210.769 E33.04253
G1 X85.591 Y210.422 E33.07832
G1 X84.944 Y210.006 E33.11414
G1 X84.344 Y209.525 E33.14995
G1 X84.034 Y209.233 E33.16978
G1 X83.917 Y209.116 E33.17748
G1 X83.403 Y208.544 E33.21329
G1 X82.95 Y207.922 E33.24912
G1 X82.564 Y207.257 E33.28493
G1 X82.249 Y206.555 E33.32075
G1 X82.009 Y205.824 E33.35658
G1 X81.846 Y205.073 E33.39236
G1 X81.762 Y204.308 E33.4282
G1 X81.75 Y203.883 E33.448
G1 X81.75 Y96.117 E38.46603
G1 X81.79 Y95.349 E38.50184
G1 X81.909 Y94.589 E38.53766
G1 X82.107 Y93.846 E38.57347
G1 X82.381 Y93.127 E38.6093
G1 X82.728 Y92.441 E38.64509
G1 X83.144 Y91.794 E38.68091
G1 X83.625 Y91.194 E38.71672
G1 X83.917 Y90.884 E38.73655
G1 X84.034 Y90.767 E38.74425
G0 F6000 X84.317 Y91.05
G1 F1200 X84.874 Y90.55 E38.77911
G1 X85.48 Y90.113 E38.8139
G1 X86.13 Y89.742 E38.84875
G1 X86.816 Y89.443 E38.88359
G1 X87.53 Y89.219 E38.91844
G1 X88.263 Y89.072 E38.95325
G1 X88.317 Y89.05 E38.95596
G1 X88.874 Y88.55 E38.99082
G1 X89.48 Y88.113 E39.0256
G1 X90.13 Y87.742 E39.06045
G1 X90.816 Y87.443 E39.0953
G1 X91.53 Y87.219 E39.13014
G1 X92.263 Y87.072 E39.16496
G1 X93.267 Y87 E39.21183
G1 X133.533 Y87 E41.08678
G1 X134.28 Y87.04 E41.12161
G1 X135.018 Y87.159 E41.15642
G1 X135.74 Y87.357 E41.19128
G1 X136.436 Y87.63 E41.22609
G1 X137.099 Y87.977 E41.26094
G1 X137.722 Y88.392 E41.2958
G1 X138.483 Y89.05 E41.34264
G1 X138.6 Y89.167 E41.35035
G1 X139.1 Y89.724 E41.3852
G1 X139.537 Y90.33 E41.41999
G1 X139.908 Y90.98 E41.45484
G1 X140.207 Y91.666 E41.48968
G1 X140.431 Y92.38 E41.52453
G1 X140.578 Y93.113 E41.55934
G1 X140.65 Y94.117 E41.60621
G1 X140.65 Y113 E42.48548
G1 X166.133 Y113 E43.67208
G1 X166.88 Y113.04 E43.70691
G1 X167.618 Y113.159 E43.74172
G1 X168.34 Y113.357 E43.77658
G1 X169.036 Y113.63 E43.81139
G1 X169.699 Y113.977 E43.84624
G1 X170.322 Y114.392 E43.88109
G1 X171.083 Y115.05 E43.92794
G1 X171.2 Y115.167 E43.93564
G1 X171.7 Y115.724 E43.97049
G1 X172.137 Y116.33 E44.00528
G1 X172.508 Y116.98 E44.04013
G1 X172.807 Y117.666 E44.07498
G1 X173.031 Y118.38 E44.10982
G1 X173.178 Y119.113 E44.14464
G1 X173.25 Y120.117 E44.19151
G1 X173.25 Y179.883 E46.97446
G1 X173.21 Y180.63 E47.00929
G1 X173.091 Y181.368 E47.0441
G1 X172.893 Y182.09 E47.07896
G1 X172.62 Y182.786 E47.11378
G1 X172.273 Y183.449 E47.14862
G1 X171.858 Y184.072 E47.18348
G1 X171.2 Y184.833 E47.23032
G1 X171.083 Y184.95 E47.23803
G1 X170.526 Y185.45 E47.27288
G1 X169.92 Y185.887 E47.30767
G1 X169.27 Y186.258 E47.34252
G1 X168.584 Y186.557 E47.37736
G1 X167.87 Y186.781 E47.41221
G1 X167.137 Y186.928 E47.44702
G1 X166.133 Y187 E47.49389
G1 X140.65 Y187 E48.68049
G1 X140.65 Y205.883 E49.55976
G1 X140.61 Y206.63 E49.59459
G1 X140.491 Y207.368 E49.6294
G1 X140.293 Y208.09 E49.66426
G1 X140.02 Y208.786 E49.69907
G1 X139.673 Y209.449 E49.73392
G1 X139.258 Y210.072 E49.76877
G1 X138.6 Y210.833 E49.81562
G1 X138.483 Y210.95 E49.82332
G1 X137.926 Y211.45 E49.85818
G1 X137.32 Y211.887 E49.89297
G1 X136.67 Y212.258 E49.92782
G1 X135.984 Y212.557 E49.96266
G1 X135.27 Y212.781 E49.99751
G1 X134.537 Y212.928 E50.03232
G1 X133.533 Y213 E50.07919
G1 X103.767 Y213 E51.46522
G1 X103.02 Y212.96 E51.50005
G1 X102.282 Y212.841 E51.53486
G1 X101.56 Y212.643 E51.56972
G1 X100.864 Y212.37 E51.60453
G1 X100.201 Y212.023 E51.63938
G1 X99.578 Y211.608 E51.67423
G1 X98.875 Y211 E51.71751
G1 X89.267 Y211 E52.1649
G1 X88.52 Y210.96 E52.19973
G1 X87.782 Y210.841 E52.23454
G1 X87.06 Y210.643 E52.2694
G1 X86.364 Y210.37 E52.30421
G1 X85.701 Y210.023 E52.33906
G1 X85.078 Y209.608 E52.37392
G1 X84.317 Y208.95 E52.42076
G1 X84.2 Y208.833 E52.42847
G1 X83.7 Y208.276 E52.46332
G1 X83.263 Y207.67 E52.49811
G1 X82.892 Y207.02 E52.53296
G1 X82.593 Y206.334 E52.5678
G1 X82.369 Y205.62 E52.60265
G1 X82.222 Y204.887 E52.63746
G1 X82.15 Y203.883 E52.68433
G1 X82.15 Y96.117 E57.70237
G1 X82.19 Y95.37 E57.7372
G1 X82.309 Y94.632 E57.77201
G1 X82.507 Y93.91 E57.80687
G1 X82.78 Y93.214 E57.84168
G1 X83.127 Y92.551 E57.87653
G1 X83.542 Y91.928 E57.91138
G1 X84.2 Y91.167 E57.95823
G1 X84.317 Y91.05 E57.96593
G0 F6000 X84.6 Y91.333
G1 F1200 X85.141 Y90.849 E57.99973
G1 X85.732 Y90.426 E58.03357
G1 X86.366 Y90.072 E58.06739
G1 X87.035 Y89.789 E58.10121
G1 X87.731 Y89.581 E58.13504
G1 X88.446 Y89.451 E58.16887
G1 X88.6 Y89.333 E58.17791
G1 X89.141 Y88.849 E58.21171
G1 X89.732 Y88.426 E58.24555
G1 X90.366 Y88.072 E58.27936
G1 X91.035 Y87.789 E58.31319
G1 X91.731 Y87.581 E58.34701
G1 X92.446 Y87.451 E58.38085
G1 X93.267 Y87.4 E58.41915
G1 X133.533 Y87.4 E60.29411
G1 X134.258 Y87.44 E60.32792
G1 X134.975 Y87.559 E60.36176
G1 X135.674 Y87.757 E60.39559
G1 X136.347 Y88.03 E60.42941
G1 X136.986 Y88.375 E60.46322
G1 X137.583 Y88.789 E60.49705
G1 X138.2 Y89.333 E60.53535
G1 X138.317 Y89.45 E60.54306
G1 X138.801 Y89.991 E60.57686
G1 X139.224 Y90.582 E60.6107
G1 X139.578 Y91.216 E60.64451
G1 X139.861 Y91.885 E60.67834
G1 X140.069 Y92.581 E60.71216
G1 X140.199 Y93.296 E60.746
G1 X140.25 Y94.117 E60.7843
G1 X140.25 Y113.4 E61.6822
G1 X166.133 Y113.4 E62.88742
G1 X166.858 Y113.44 E62.92123
G1 X167.575 Y113.559 E62.95508
G1 X168.274 Y113.757 E62.98891
G1 X168.947 Y114.03 E63.02272
G1 X169.586 Y114.375 E63.05654
G1 X170.183 Y114.789 E63.09037
G1 X170.8 Y115.333 E63.12867
G1 X170.917 Y115.45 E63.13637
G1 X171.401 Y115.991 E63.17017
G1 X171.824 Y116.582 E63.20402
G1 X172.178 Y117.216 E63.23783
G1 X172.461 Y117.885 E63.27165
G1 X172.669 Y118.581 E63.30548
G1 X172.799 Y119.296 E63.33932
G1 X172.85 Y120.117 E63.37762
G1 X172.85 Y179.883 E66.16058
G1 X172.81 Y180.608 E66.19439
G1 X172.691 Y181.325 E66.22823
G1 X172.493 Y182.024 E66.26206
G1 X172.22 Y182.697 E66.29588
G1 X171.875 Y183.336 E66.32969
G1 X171.461 Y183.933 E66.36352
G1 X170.917 Y184.55 E66.40182
G1 X170.8 Y184.667 E66.40953
G1 X170.259 Y185.151 E66.44333
G1 X169.668 Y185.574 E66.47717
G1 X169.034 Y185.928 E66.51098
G1 X168.365 Y186.211 E66.5448
G1 X167.669 Y186.419 E66.57863
G1 X166.954 Y186.549 E66.61247
G1 X166.133 Y186.6 E66.65077
G1 X140.25 Y186.6 E67.85599
G1 X140.25 Y205.883 E68.75389
G1 X140.21 Y206.608 E68.7877
G1 X140.091 Y207.325 E68.82154
G1 X139.893 Y208.024 E68.85537
G1 X139.62 Y208.697 E68.88919
G1 X139.275 Y209.336 E68.923
G1 X138.861 Y209.933 E68.95683
G1 X138.317 Y210.55 E68.99514
G1 X138.2 Y210.667 E69.00284
G1 X137.659 Y211.151 E69.03664
G1 X137.068 Y211.574 E69.07048
G1 X136.434 Y211.928 E69.1043
G1 X135.765 Y212.211 E69.13812
G1 X135.069 Y212.419 E69.17194
G1 X134.354 Y212.549 E69.20578
G1 X133.533 Y212.6 E69.24409
G1 X103.767 Y212.6 E70.63012
G1 X103.042 Y212.56 E70.66393
G1 X102.325 Y212.441 E70.69777
G1 X101.626 Y212.243 E70.7316
G1 X100.953 Y211.97 E70.76542
G1 X100.314 Y211.625 E70.79923
G1 X99.717 Y211.211 E70.83306
G1 X99.1 Y210.667 E70.87136
G1 X99.033 Y210.6 E70.87577
G1 X89.267 Y210.6 E71.33052
G1 X88.542 Y210.56 E71.36433
G1 X87.825 Y210.441 E71.39817
G1 X87.126 Y210.243 E71.432
G1 X86.453 Y209.97 E71.46582
G1 X85.814 Y209.625 E71.49964
G1 X85.217 Y209.211 E71.53346
G1 X84.6 Y208.667 E71.57177
G1 X84.483 Y208.55 E71.57947
G1 X83.999 Y208.009 E71.61327
G1 X83.576 Y207.418 E71.64711
G1 X83.222 Y206.784 E71.68093
G1 X82.939 Y206.115 E71.71475
G1 X82.731 Y205.419 E71.74858
G1 X82.601 Y204.704 E71.78241
G1 X82.55 Y203.883 E71.82072
G1 X82.55 Y96.117 E76.83875
G1 X82.59 Y95.392 E76.87256
G1 X82.709 Y94.675 E76.90641
G1 X82.907 Y93.976 E76.94024
G1 X83.18 Y93.303 E76.97405
G1 X83.525 Y92.664 E77.00787
G1 X83.939 Y92.067 E77.0417
G1 X84.483 Y91.45 E77.08
G1 X84.6 Y91.333 E77.0877
G0 F6000 X84.883 Y91.616
G1 F1200 X85.408 Y91.147 E77.12048
G1 X85.983 Y90.741 E77.15326
G1 X86.601 Y90.403 E77.18606
G1 X87.252 Y90.136 E77.21882
G1 X87.93 Y89.946 E77.25161
G1 X88.625 Y89.833 E77.2844
G1 X88.678 Y89.83 E77.28687
G1 X88.883 Y89.616 E77.30067
G1 X89.408 Y89.147 E77.33345
G1 X89.983 Y88.741 E77.36622
G1 X90.601 Y88.403 E77.39902
G1 X91.252 Y88.136 E77.43179
G1 X91.93 Y87.946 E77.46457
G1 X92.625 Y87.833 E77.49736
G1 X93.267 Y87.8 E77.5273
G1 X133.533 Y87.8 E79.40225
G1 X134.236 Y87.84 E79.43504
G1 X134.93 Y87.959 E79.46782
G1 X135.605 Y88.157 E79.50058
G1 X136.254 Y88.429 E79.53335
G1 X136.868 Y88.774 E79.56614
G1 X137.439 Y89.185 E79.5989
G1 X137.917 Y89.616 E79.62887
G1 X138.034 Y89.733 E79.63657
G1 X138.503 Y90.258 E79.66935
