;FLAVOR:Marlin
;TIME:22762
;Filament used: 21.9181m
;Layer height: 0.28
;MINX:69.2
;MINY:119.7
;MINZ:0.28
;MAXX:230.8
;MAXY:180.3
;MAXZ:29.96
;Generated with Cura_SteamEngine 4.9.0
M140 S60
M105
M190 S60
M104 S200
M105
M109 S200
M82 ;absolute extrusion mode
M201 X500.00 Y500.00 Z100.00 E5000.00 ;Setup machine max acceleration
M203 X500.00 Y500.00 Z10.00 E50.00 ;Setup machine max feedrate
M204 P500.00 R1000.00 T500.00 ;Setup Print/Retract/Travel acceleration
M205 X8.00 Y8.00 Z0.40 E5.00 ;Setup Jerk
M220 S100 ;Reset Feedrate
M221 S100 ;Reset Flowrate

G28 ;Home
G29 ;Auto bed Level

G92 E0 ;Reset Extruder
G1 Z2.0 F3000 ;Move Z Axis up
G1 X10.1 Y20 Z0.28 F5000.0 ;Move to start position
G1 X10.1 Y200.0 Z0.28 F1500.0 E15 ;Draw the first line
G1 X10.4 Y200.0 Z0.28 F5000.0 ;Move to side a little
G1 X10.4 Y20 Z0.28 F1500.0 E30 ;Draw the second line
G92 E0 ;Reset Extruder
G1 Z2.0 F3000 ;Move Z Axis up

G92 E0
G92 E0
G1 F1500 E-6.5
;LAYER_COUNT:107
;LAYER:0
M107
G0 F6000 X72.824 Y122.988 Z0.28
;TYPE:SKIRT
G1 F1500 E0
G1 F1200 X73.504 Y122.587 E0.03676
G1 X74.222 Y122.257 E0.07355
G1 X74.969 Y122.002 E0.11031
G1 X75.738 Y121.823 E0.14707
G1 X76.522 Y121.723 E0.18388
G1 X77.117 Y121.7 E0.2116
G1 X87.917 Y121.7 E0.7145
G1 X88.188 Y121.455 E0.73151
G1 X88.824 Y120.988 E0.76825
G1 X89.504 Y120.587 E0.80501
G1 X90.222 Y120.257 E0.8418
G1 X90.969 Y120.002 E0.87856
G1 X91.738 Y119.823 E0.91532
G1 X92.522 Y119.723 E0.95212
G1 X93.117 Y119.7 E0.97985
G1 X204.883 Y119.7 E6.18414
G1 X205.672 Y119.74 E6.22093
G1 X206.452 Y119.859 E6.25767
G1 X207.217 Y120.057 E6.29447
G1 X207.957 Y120.331 E6.33121
G1 X208.666 Y120.679 E6.36799
G1 X209.337 Y121.097 E6.4048
G1 X209.961 Y121.58 E6.44154
G1 X210.09 Y121.7 E6.44974
G1 X222.883 Y121.7 E7.04544
G1 X223.672 Y121.74 E7.08223
G1 X224.452 Y121.859 E7.11897
G1 X225.217 Y122.057 E7.15576
G1 X225.957 Y122.331 E7.19251
G1 X226.666 Y122.679 E7.22928
G1 X227.337 Y123.097 E7.26609
G1 X227.961 Y123.58 E7.30284
G1 X228.398 Y123.985 E7.33058
G1 X228.515 Y124.102 E7.33828
G1 X229.045 Y124.688 E7.37508
G1 X229.512 Y125.324 E7.41182
G1 X229.913 Y126.004 E7.44858
G1 X230.243 Y126.722 E7.48537
G1 X230.498 Y127.469 E7.52213
G1 X230.677 Y128.238 E7.55889
G1 X230.777 Y129.022 E7.59569
G1 X230.8 Y129.617 E7.62342
G1 X230.8 Y170.383 E9.52166
G1 X230.76 Y171.172 E9.55844
G1 X230.641 Y171.952 E9.59518
G1 X230.443 Y172.717 E9.63198
G1 X230.169 Y173.457 E9.66872
G1 X229.821 Y174.166 E9.7055
G1 X229.403 Y174.837 E9.74231
G1 X228.92 Y175.461 E9.77905
G1 X228.515 Y175.898 E9.8068
G1 X228.398 Y176.015 E9.8145
G1 X227.812 Y176.545 E9.85129
G1 X227.176 Y177.012 E9.88803
G1 X226.496 Y177.413 E9.92479
G1 X225.778 Y177.743 E9.96159
G1 X225.031 Y177.998 E9.99834
G1 X224.262 Y178.177 E10.03511
G1 X223.478 Y178.277 E10.07191
G1 X222.883 Y178.3 E10.09964
G1 X212.083 Y178.3 E10.60253
G1 X211.812 Y178.545 E10.61954
G1 X211.176 Y179.012 E10.65628
G1 X210.496 Y179.413 E10.69304
G1 X209.778 Y179.743 E10.72984
G1 X209.031 Y179.998 E10.76659
G1 X208.262 Y180.177 E10.80335
G1 X207.478 Y180.277 E10.84016
G1 X206.883 Y180.3 E10.86788
G1 X93.117 Y180.3 E16.1653
G1 X92.328 Y180.26 E16.20209
G1 X91.548 Y180.141 E16.23883
G1 X90.783 Y179.943 E16.27563
G1 X90.043 Y179.669 E16.31237
G1 X89.334 Y179.321 E16.34915
G1 X88.663 Y178.903 E16.38596
G1 X88.039 Y178.42 E16.4227
G1 X87.91 Y178.3 E16.43091
G1 X77.117 Y178.3 E16.93347
G1 X76.328 Y178.26 E16.97026
G1 X75.548 Y178.141 E17.007
G1 X74.783 Y177.943 E17.04379
G1 X74.043 Y177.669 E17.08054
G1 X73.334 Y177.321 E17.11731
G1 X72.663 Y176.903 E17.15413
G1 X72.039 Y176.42 E17.19087
G1 X71.602 Y176.015 E17.21861
G1 X71.485 Y175.898 E17.22632
G1 X70.955 Y175.312 E17.26311
G1 X70.488 Y174.676 E17.29985
G1 X70.087 Y173.996 E17.33661
G1 X69.757 Y173.278 E17.3734
G1 X69.502 Y172.531 E17.41016
G1 X69.323 Y171.762 E17.44692
G1 X69.223 Y170.978 E17.48373
G1 X69.2 Y170.383 E17.51145
G1 X69.2 Y129.617 E19.40969
G1 X69.24 Y128.828 E19.44647
G1 X69.359 Y128.048 E19.48321
G1 X69.557 Y127.283 E19.52001
G1 X69.831 Y126.543 E19.55675
G1 X70.179 Y125.834 E19.59353
G1 X70.597 Y125.163 E19.63034
G1 X71.08 Y124.539 E19.66709
G1 X71.485 Y124.102 E19.69483
G1 X71.602 Y123.985 E19.70253
G1 X72.188 Y123.455 E19.73932
G1 X72.824 Y122.988 E19.77607
G0 F6000 X73.078 Y123.3
G1 F1200 X73.743 Y122.914 E19.81187
G1 X74.445 Y122.599 E19.8477
G1 X75.176 Y122.359 E19.88352
G1 X75.927 Y122.196 E19.91931
G1 X76.692 Y122.112 E19.95514
G1 X77.117 Y122.1 E19.97494
G1 X88.07 Y122.1 E20.48496
G1 X88.456 Y121.753 E20.50913
G1 X89.078 Y121.3 E20.54496
G1 X89.743 Y120.914 E20.58076
G1 X90.445 Y120.599 E20.61659
G1 X91.176 Y120.359 E20.65241
G1 X91.927 Y120.196 E20.6882
G1 X92.692 Y120.112 E20.72403
G1 X93.117 Y120.1 E20.74383
G1 X204.883 Y120.1 E25.94813
G1 X205.651 Y120.14 E25.98394
G1 X206.411 Y120.259 E26.01976
G1 X207.154 Y120.457 E26.05556
G1 X207.873 Y120.731 E26.09139
G1 X208.559 Y121.078 E26.12719
G1 X209.206 Y121.494 E26.163
G1 X209.806 Y121.975 E26.19881
G1 X209.939 Y122.1 E26.20731
G1 X222.883 Y122.1 E26.81004
G1 X223.651 Y122.14 E26.84585
G1 X224.411 Y122.259 E26.88167
G1 X225.154 Y122.457 E26.91747
G1 X225.873 Y122.731 E26.9533
G1 X226.559 Y123.078 E26.9891
G1 X227.206 Y123.494 E27.02491
G1 X227.806 Y123.975 E27.06072
G1 X228.116 Y124.267 E27.08055
G1 X228.233 Y124.384 E27.08826
G1 X228.747 Y124.956 E27.12406
G1 X229.2 Y125.578 E27.15989
G1 X229.586 Y126.243 E27.1957
G1 X229.901 Y126.945 E27.23153
G1 X230.141 Y127.676 E27.26735
G1 X230.304 Y128.427 E27.30314
G1 X230.388 Y129.192 E27.33897
G1 X230.4 Y129.617 E27.35877
G1 X230.4 Y170.383 E29.257
G1 X230.36 Y171.151 E29.29281
G1 X230.241 Y171.911 E29.32863
G1 X230.043 Y172.654 E29.36444
G1 X229.769 Y173.373 E29.40027
G1 X229.422 Y174.059 E29.43606
G1 X229.006 Y174.706 E29.47188
G1 X228.525 Y175.306 E29.50769
G1 X228.233 Y175.616 E29.52752
G1 X228.116 Y175.733 E29.53522
G1 X227.544 Y176.247 E29.57103
G1 X226.922 Y176.7 E29.60686
G1 X226.257 Y177.086 E29.64267
G1 X225.555 Y177.401 E29.67849
G1 X224.824 Y177.641 E29.71432
G1 X224.073 Y177.804 E29.7501
G1 X223.308 Y177.888 E29.78594
G1 X222.883 Y177.9 E29.80574
G1 X211.93 Y177.9 E30.31576
G1 X211.544 Y178.247 E30.33992
G1 X210.922 Y178.7 E30.37575
G1 X210.257 Y179.086 E30.41156
G1 X209.555 Y179.401 E30.44739
G1 X208.824 Y179.641 E30.48321
G1 X208.073 Y179.804 E30.519
G1 X207.308 Y179.888 E30.55483
G1 X206.883 Y179.9 E30.57463
G1 X93.117 Y179.9 E35.87205
G1 X92.349 Y179.86 E35.90786
G1 X91.589 Y179.741 E35.94368
G1 X90.846 Y179.543 E35.97948
G1 X90.127 Y179.269 E36.01531
G1 X89.441 Y178.922 E36.05111
G1 X88.794 Y178.506 E36.08693
G1 X88.194 Y178.025 E36.12274
G1 X88.061 Y177.9 E36.13123
G1 X77.117 Y177.9 E36.64083
G1 X76.349 Y177.86 E36.67664
G1 X75.589 Y177.741 E36.71246
G1 X74.846 Y177.543 E36.74827
G1 X74.127 Y177.269 E36.7841
G1 X73.441 Y176.922 E36.81989
G1 X72.794 Y176.506 E36.85571
G1 X72.194 Y176.025 E36.89152
G1 X71.884 Y175.733 E36.91135
G1 X71.767 Y175.616 E36.91905
G1 X71.253 Y175.044 E36.95486
G1 X70.8 Y174.422 E36.99069
G1 X70.414 Y173.757 E37.02649
G1 X70.099 Y173.055 E37.06232
G1 X69.859 Y172.324 E37.09815
G1 X69.696 Y171.573 E37.13393
G1 X69.612 Y170.808 E37.16977
G1 X69.6 Y170.383 E37.18957
G1 X69.6 Y129.617 E39.0878
G1 X69.64 Y128.849 E39.12361
G1 X69.759 Y128.089 E39.15943
G1 X69.957 Y127.346 E39.19524
G1 X70.231 Y126.627 E39.23106
G1 X70.578 Y125.941 E39.26686
G1 X70.994 Y125.294 E39.30268
G1 X71.475 Y124.694 E39.33849
G1 X71.767 Y124.384 E39.35832
G1 X71.884 Y124.267 E39.36602
G1 X72.456 Y123.753 E39.40183
G1 X73.078 Y123.3 E39.43766
G0 F6000 X73.33 Y123.613
G1 F1200 X73.98 Y123.242 E39.47251
G1 X74.666 Y122.943 E39.50735
G1 X75.38 Y122.719 E39.5422
G1 X76.113 Y122.572 E39.57701
G1 X77.117 Y122.5 E39.62388
G1 X88.223 Y122.5 E40.14102
G1 X88.724 Y122.05 E40.17238
G1 X89.33 Y121.613 E40.20717
G1 X89.98 Y121.242 E40.24202
G1 X90.666 Y120.943 E40.27686
G1 X91.38 Y120.719 E40.31171
G1 X92.113 Y120.572 E40.34652
G1 X93.117 Y120.5 E40.39339
G1 X204.883 Y120.5 E45.59768
G1 X205.63 Y120.54 E45.63252
G1 X206.368 Y120.659 E45.66733
G1 X207.09 Y120.857 E45.70219
G1 X207.786 Y121.13 E45.737
G1 X208.449 Y121.477 E45.77184
G1 X209.072 Y121.892 E45.8067
G1 X209.775 Y122.5 E45.84998
G1 X222.883 Y122.5 E46.46034
G1 X223.63 Y122.54 E46.49518
G1 X224.368 Y122.659 E46.52998
G1 X225.09 Y122.857 E46.56484
G1 X225.786 Y123.13 E46.59966
G1 X226.449 Y123.477 E46.6345
G1 X227.072 Y123.892 E46.66936
G1 X227.833 Y124.55 E46.7162
G1 X227.95 Y124.667 E46.72391
G1 X228.45 Y125.224 E46.75876
G1 X228.887 Y125.83 E46.79355
G1 X229.258 Y126.48 E46.8284
G1 X229.557 Y127.166 E46.86325
G1 X229.781 Y127.88 E46.89809
G1 X229.928 Y128.613 E46.9329
G1 X230 Y129.617 E46.97977
G1 X230 Y170.383 E48.87801
G1 X229.96 Y171.13 E48.91284
G1 X229.841 Y171.868 E48.94765
G1 X229.643 Y172.59 E48.98251
G1 X229.37 Y173.286 E49.01732
G1 X229.023 Y173.949 E49.05217
G1 X228.608 Y174.572 E49.08702
G1 X227.95 Y175.333 E49.13387
G1 X227.833 Y175.45 E49.14157
G1 X227.276 Y175.95 E49.17643
G1 X226.67 Y176.387 E49.21122
G1 X226.02 Y176.758 E49.24607
G1 X225.334 Y177.057 E49.28091
G1 X224.62 Y177.281 E49.31576
G1 X223.887 Y177.428 E49.35057
G1 X222.883 Y177.5 E49.39744
G1 X211.777 Y177.5 E49.91458
G1 X211.276 Y177.95 E49.94594
G1 X210.67 Y178.387 E49.98073
G1 X210.02 Y178.758 E50.01558
G1 X209.334 Y179.057 E50.05042
G1 X208.62 Y179.281 E50.08527
G1 X207.887 Y179.428 E50.12008
G1 X206.883 Y179.5 E50.16695
G1 X93.117 Y179.5 E55.46437
G1 X92.37 Y179.46 E55.4992
G1 X91.632 Y179.341 E55.53401
G1 X90.91 Y179.143 E55.56887
G1 X90.214 Y178.87 E55.60368
G1 X89.551 Y178.523 E55.63853
G1 X88.928 Y178.108 E55.67339
G1 X88.225 Y177.5 E55.71666
G1 X77.117 Y177.5 E56.2339
G1 X76.37 Y177.46 E56.26873
G1 X75.632 Y177.341 E56.30354
G1 X74.91 Y177.143 E56.3384
G1 X74.214 Y176.87 E56.37321
G1 X73.551 Y176.523 E56.40806
G1 X72.928 Y176.108 E56.44292
G1 X72.167 Y175.45 E56.48976
G1 X72.05 Y175.333 E56.49746
G1 X71.55 Y174.776 E56.53232
G1 X71.113 Y174.17 E56.56711
G1 X70.742 Y173.52 E56.60196
G1 X70.443 Y172.834 E56.6368
G1 X70.219 Y172.12 E56.67165
G1 X70.072 Y171.387 E56.70646
G1 X70 Y170.383 E56.75333
G1 X70 Y129.617 E58.65156
G1 X70.04 Y128.87 E58.6864
G1 X70.159 Y128.132 E58.72121
G1 X70.357 Y127.41 E58.75607
G1 X70.63 Y126.714 E58.79088
G1 X70.977 Y126.051 E58.82572
G1 X71.392 Y125.428 E58.86058
G1 X72.05 Y124.667 E58.90743
G1 X72.167 Y124.55 E58.91513
G1 X72.724 Y124.05 E58.94998
G1 X73.33 Y123.613 E58.98477
G0 F6000 X73.582 Y123.926
G1 F1200 X74.216 Y123.572 E59.01858
G1 X74.885 Y123.289 E59.05241
G1 X75.581 Y123.081 E59.08623
G1 X76.296 Y122.951 E59.12007
G1 X77.117 Y122.9 E59.15838
G1 X88.383 Y122.9 E59.68297
G1 X88.45 Y122.833 E59.68738
G1 X88.991 Y122.349 E59.72118
G1 X89.582 Y121.926 E59.75502
G1 X90.216 Y121.572 E59.78883
G1 X90.885 Y121.289 E59.82266
G1 X91.581 Y121.081 E59.85648
G1 X92.296 Y120.951 E59.89032
G1 X93.117 Y120.9 E59.92863
G1 X204.883 Y120.9 E65.13292
G1 X205.608 Y120.94 E65.16673
G1 X206.325 Y121.059 E65.20057
G1 X207.024 Y121.257 E65.2344
G1 X207.697 Y121.53 E65.26822
G1 X208.336 Y121.875 E65.30203
G1 X208.933 Y122.289 E65.33586
G1 X209.55 Y122.833 E65.37417
G1 X209.617 Y122.9 E65.37858
G1 X222.883 Y122.9 E65.9963
G1 X223.608 Y122.94 E66.03011
G1 X224.325 Y123.059 E66.06395
G1 X225.024 Y123.257 E66.09778
G1 X225.697 Y123.53 E66.1316
G1 X226.336 Y123.875 E66.16541
G1 X226.933 Y124.289 E66.19924
G1 X227.55 Y124.833 E66.23754
G1 X227.667 Y124.95 E66.24525
G1 X228.151 Y125.491 E66.27905
G1 X228.574 Y126.082 E66.31289
G1 X228.928 Y126.716 E66.3467
G1 X229.211 Y127.385 E66.38053
G1 X229.419 Y128.081 E66.41435
G1 X229.549 Y128.796 E66.44819
G1 X229.6 Y129.617 E66.48649
G1 X229.6 Y170.383 E68.38473
G1 X229.56 Y171.108 E68.41854
G1 X229.441 Y171.825 E68.45238
G1 X229.243 Y172.524 E68.48621
G1 X228.97 Y173.197 E68.52003
G1 X228.625 Y173.836 E68.55384
G1 X228.211 Y174.433 E68.58767
G1 X227.667 Y175.05 E68.62598
G1 X227.55 Y175.167 E68.63368
G1 X227.009 Y175.651 E68.66748
G1 X226.418 Y176.074 E68.70132
G1 X225.784 Y176.428 E68.73514
G1 X225.115 Y176.711 E68.76896
G1 X224.419 Y176.919 E68.80278
G1 X223.704 Y177.049 E68.83662
G1 X222.883 Y177.1 E68.87493
G1 X211.617 Y177.1 E69.39952
G1 X211.55 Y177.167 E69.40393
G1 X211.009 Y177.651 E69.43773
G1 X210.418 Y178.074 E69.47157
G1 X209.784 Y178.428 E69.50539
G1 X209.115 Y178.711 E69.53921
G1 X208.419 Y178.919 E69.57304
G1 X207.704 Y179.049 E69.60687
G1 X206.883 Y179.1 E69.64518
G1 X93.117 Y179.1 E74.9426
G1 X92.392 Y179.06 E74.97641
G1 X91.675 Y178.941 E75.01025
G1 X90.976 Y178.743 E75.04408
G1 X90.303 Y178.47 E75.0779
G1 X89.664 Y178.125 E75.11171
G1 X89.067 Y177.711 E75.14554
G1 X88.45 Y177.167 E75.18384
G1 X88.383 Y177.1 E75.18826
G1 X77.117 Y177.1 E75.71285
G1 X76.392 Y177.06 E75.74666
G1 X75.675 Y176.941 E75.7805
G1 X74.976 Y176.743 E75.81433
G1 X74.303 Y176.47 E75.84815
G1 X73.664 Y176.125 E75.88196
G1 X73.067 Y175.711 E75.91579
G1 X72.45 Y175.167 E75.9541
G1 X72.333 Y175.05 E75.9618
G1 X71.849 Y174.509 E75.9956
G1 X71.426 Y173.918 E76.02944
G1 X71.072 Y173.284 E76.06325
G1 X70.789 Y172.615 E76.09708
G1 X70.581 Y171.919 E76.1309
G1 X70.451 Y171.204 E76.16474
G1 X70.4 Y170.383 E76.20305
G1 X70.4 Y129.617 E78.10128
G1 X70.44 Y128.892 E78.13509
G1 X70.559 Y128.175 E78.16894
G1 X70.757 Y127.476 E78.20276
G1 X71.03 Y126.803 E78.23658
G1 X71.375 Y126.164 E78.2704
G1 X71.789 Y125.567 E78.30423
G1 X72.333 Y124.95 E78.34253
G1 X72.45 Y124.833 E78.35023
G1 X72.991 Y124.349 E78.38403
G1 X73.582 Y123.926 E78.41788
G0 F6000 X73.833 Y124.241
G1 F1200 X74.451 Y123.903 E78.45067
G1 X75.102 Y123.636 E78.48344
G1 X75.78 Y123.446 E78.51623
G1 X76.475 Y123.333 E78.54901
G1 X77.117 Y123.3 E78.57895
G1 X88.556 Y123.3 E79.11159
G1 X88.733 Y123.116 E79.12348
G1 X89.258 Y122.647 E79.15626
G1 X89.833 Y122.241 E79.18904
G1 X90.451 Y121.903 E79.22184
G1 X91.102 Y121.636 E79.2546
G1 X91.78 Y121.446 E79.28739
G1 X92.475 Y121.333 E79.32018
G1 X93.117 Y121.3 E79.35011
G1 X204.883 Y121.3 E84.5544
G1 X205.586 Y121.34 E84.58719
G1 X206.28 Y121.459 E84.61998
G1 X206.955 Y121.657 E84.65273
G1 X207.604 Y121.929 E84.6855
G1 X208.218 Y122.274 E84.71829
G1 X208.789 Y122.685 E84.75105
G1 X209.267 Y123.116 E84.78102
G1 X209.444 Y123.3 E84.79291
G1 X222.883 Y123.3 E85.41869
G1 X223.586 Y123.34 E85.45148
G1 X224.28 Y123.459 E85.48426
G1 X224.955 Y123.657 E85.51702
G1 X225.604 Y123.929 E85.54978
G1 X226.218 Y124.274 E85.58258
G1 X226.789 Y124.685 E85.61534
G1 X227.267 Y125.116 E85.64531
G1 X227.384 Y125.233 E85.65301
G1 X227.853 Y125.758 E85.68579
G1 X228.259 Y126.333 E85.71857
G1 X228.597 Y126.951 E85.75137
G1 X228.864 Y127.602 E85.78413
G1 X229.054 Y128.28 E85.81692
G1 X229.167 Y128.975 E85.84971
G1 X229.2 Y129.617 E85.87964
G1 X229.2 Y170.383 E87.77788
G1 X229.16 Y171.086 E87.81066
G1 X229.041 Y171.78 E87.84345
G1 X228.843 Y172.455 E87.87621
G1 X228.571 Y173.104 E87.90897
G1 X228.226 Y173.718 E87.94177
G1 X227.815 Y174.289 E87.97453
G1 X227.384 Y174.767 E88.0045
G1 X227.267 Y174.884 E88.0122
G1 X226.742 Y175.353 E88.04498
G1 X226.167 Y175.759 E88.07776
G1 X225.549 Y176.097 E88.11056
G1 X224.898 Y176.364 E88.14332
G1 X224.22 Y176.554 E88.17611
G1 X223.525 Y176.667 E88.20889
G1 X222.883 Y176.7 E88.23883
G1 X211.444 Y176.7 E88.77148
G1 X211.267 Y176.884 E88.78336
G1 X210.742 Y177.353 E88.81614
G1 X210.167 Y177.759 E88.84892
G1 X209.549 Y178.097 E88.88172
G1 X208.898 Y178.364 E88.91448
G1 X208.22 Y178.554 E88.94727
G1 X207.525 Y178.667 E88.98006
G1 X206.883 Y178.7 E89.00999
G1 X93.117 Y178.7 E94.30741
G1 X92.414 Y178.66 E94.3402
G1 X91.72 Y178.541 E94.37299
G1 X91.045 Y178.343 E94.40574
G1 X90.396 Y178.071 E94.43851
G1 X89.782 Y177.726 E94.4713
G1 X89.211 Y177.315 E94.50406
G1 X88.733 Y176.884 E94.53403
G1 X88.556 Y176.7 E94.54592
G1 X77.117 Y176.7 E95.07857
G1 X76.414 Y176.66 E95.11136
G1 X75.72 Y176.541 E95.14414
G1 X75.045 Y176.343 E95.1769
G1 X74.396 Y176.071 E95.20967
G1 X73.782 Y175.726 E95.24246
G1 X73.211 Y175.315 E95.27522
G1 X72.733 Y174.884 E95.30519
G1 X72.616 Y174.767 E95.31289
G1 X72.147 Y174.242 E95.34567
G1 X71.741 Y173.667 E95.37845
G1 X71.403 Y173.049 E95.41125
G1 X71.136 Y172.398 E95.44401
G1 X70.946 Y171.72 E95.4768
G1 X70.833 Y171.025 E95.50959
