;FLAVOR:Marlin
;TIME:10283
;Filament used: 9.17977m
;Layer height: 0.28
;MINX:68.179
;MINY:126.95
;MINZ:0.28
;MAXX:231.821
;MAXY:173.05
;MAXZ:16.8
;Generated with Cura_SteamEngine 4.9.0
M140 S60
M105
M190 S60
M104 S200
M105
M109 S200
M82 ;absolute extrusion mode
M201 X500.00 Y500.00 Z100.00 E5000.00 ;Setup machine max acceleration
M203 X500.00 Y500.00 Z10.00 E50.00 ;Setup machine max feedrate
M204 P500.00 R1000.00 T500.00 ;Setup Print/Retract/Travel acceleration
M205 X8.00 Y8.00 Z0.40 E5.00 ;Setup Jerk
M220 S100 ;Reset Feedrate
M221 S100 ;Reset Flowrate

G28 ;Home
G29 ;Auto bed Level

G92 E0 ;Reset Extruder
G1 Z2.0 F3000 ;Move Z Axis up
G1 X10.1 Y20 Z0.28 F5000.0 ;Move to start position
G1 X10.1 Y200.0 Z0.28 F1500.0 E15 ;Draw the first line
G1 X10.4 Y200.0 Z0.28 F5000.0 ;Move to side a little
G1 X10.4 Y20 Z0.28 F1500.0 E30 ;Draw the second line
G92 E0 ;Reset Extruder
G1 Z2.0 F3000 ;Move Z Axis up

G92 E0
G92 E0
G1 F1500 E-6.5
;LAYER_COUNT:60
;LAYER:0
M107
G0 F6000 X72.483 Y127.837 Z0.28
;TYPE:SKIRT
G1 F1500 E0
G1 F1200 X73.201 Y127.507 E0.0368
G1 X73.948 Y127.252 E0.07355
G1 X74.717 Y127.073 E0.11031
G1 X75.501 Y126.973 E0.14712
G1 X76.096 Y126.95 E0.17484
G1 X223.904 Y126.95 E7.0574
G1 X224.693 Y126.99 E7.09419
G1 X225.473 Y127.109 E7.13093
G1 X226.238 Y127.307 E7.16772
G1 X226.978 Y127.581 E7.20447
G1 X227.687 Y127.929 E7.24125
G1 X228.358 Y128.347 E7.27806
G1 X228.982 Y128.83 E7.3148
G1 X229.419 Y129.235 E7.34254
G1 X229.536 Y129.352 E7.35025
G1 X230.066 Y129.938 E7.38704
G1 X230.533 Y130.574 E7.42378
G1 X230.934 Y131.254 E7.46054
G1 X231.264 Y131.972 E7.49733
G1 X231.519 Y132.719 E7.53409
G1 X231.698 Y133.488 E7.57085
G1 X231.798 Y134.272 E7.60766
G1 X231.821 Y134.867 E7.63538
G1 X231.821 Y165.133 E9.04469
G1 X231.781 Y165.922 E9.08148
G1 X231.662 Y166.702 E9.11822
G1 X231.464 Y167.467 E9.15502
G1 X231.19 Y168.207 E9.19176
G1 X230.842 Y168.916 E9.22854
G1 X230.424 Y169.587 E9.26535
G1 X229.941 Y170.211 E9.30209
G1 X229.536 Y170.648 E9.32983
G1 X229.419 Y170.765 E9.33754
G1 X228.833 Y171.295 E9.37433
G1 X228.197 Y171.762 E9.41107
G1 X227.517 Y172.163 E9.44783
G1 X226.799 Y172.493 E9.48463
G1 X226.052 Y172.748 E9.52138
G1 X225.283 Y172.927 E9.55815
G1 X224.499 Y173.027 E9.59495
G1 X223.904 Y173.05 E9.62267
G1 X76.096 Y173.05 E16.50523
G1 X75.307 Y173.01 E16.54202
G1 X74.527 Y172.891 E16.57876
G1 X73.762 Y172.693 E16.61556
G1 X73.022 Y172.419 E16.6523
G1 X72.313 Y172.071 E16.68908
G1 X71.642 Y171.653 E16.72589
G1 X71.018 Y171.17 E16.76263
G1 X70.581 Y170.765 E16.79037
G1 X70.464 Y170.648 E16.79808
G1 X69.934 Y170.062 E16.83487
G1 X69.467 Y169.426 E16.87161
G1 X69.066 Y168.746 E16.90837
G1 X68.736 Y168.028 E16.94517
G1 X68.481 Y167.281 E16.98192
G1 X68.302 Y166.512 E17.01869
G1 X68.202 Y165.728 E17.05549
G1 X68.179 Y165.133 E17.08321
G1 X68.179 Y134.867 E18.49253
G1 X68.219 Y134.078 E18.52931
G1 X68.338 Y133.298 E18.56605
G1 X68.536 Y132.533 E18.60285
G1 X68.81 Y131.793 E18.63959
G1 X69.158 Y131.084 E18.67637
G1 X69.576 Y130.413 E18.71318
G1 X70.059 Y129.789 E18.74992
G1 X70.464 Y129.352 E18.77767
G1 X70.581 Y129.235 E18.78537
G1 X71.167 Y128.705 E18.82216
G1 X71.803 Y128.238 E18.8589
G1 X72.483 Y127.837 E18.89566
G0 F6000 X72.722 Y128.164
G1 F1200 X73.424 Y127.849 E18.93149
G1 X74.155 Y127.609 E18.96732
G1 X74.906 Y127.446 E19.0031
G1 X75.671 Y127.362 E19.03894
G1 X76.096 Y127.35 E19.05873
G1 X223.904 Y127.35 E25.94129
G1 X224.672 Y127.39 E25.9771
G1 X225.432 Y127.509 E26.01292
G1 X226.175 Y127.707 E26.04873
G1 X226.894 Y127.981 E26.08456
G1 X227.58 Y128.328 E26.12035
G1 X228.227 Y128.744 E26.15617
G1 X228.827 Y129.225 E26.19198
G1 X229.137 Y129.517 E26.21181
G1 X229.254 Y129.634 E26.21951
G1 X229.768 Y130.206 E26.25532
G1 X230.221 Y130.828 E26.29115
G1 X230.607 Y131.493 E26.32696
G1 X230.922 Y132.195 E26.36278
G1 X231.162 Y132.926 E26.39861
G1 X231.325 Y133.677 E26.43439
G1 X231.409 Y134.442 E26.47023
G1 X231.421 Y134.867 E26.49003
G1 X231.421 Y165.133 E27.89934
G1 X231.381 Y165.901 E27.93515
G1 X231.262 Y166.661 E27.97097
G1 X231.064 Y167.404 E28.00677
G1 X230.79 Y168.123 E28.0426
G1 X230.443 Y168.809 E28.0784
G1 X230.027 Y169.456 E28.11421
G1 X229.546 Y170.056 E28.15002
G1 X229.254 Y170.366 E28.16985
G1 X229.137 Y170.483 E28.17756
G1 X228.565 Y170.997 E28.21337
G1 X227.943 Y171.45 E28.2492
G1 X227.278 Y171.836 E28.285
G1 X226.576 Y172.151 E28.32083
G1 X225.845 Y172.391 E28.35665
G1 X225.094 Y172.554 E28.39244
G1 X224.329 Y172.638 E28.42827
G1 X223.904 Y172.65 E28.44807
G1 X76.096 Y172.65 E35.33063
G1 X75.328 Y172.61 E35.36644
G1 X74.568 Y172.491 E35.40226
G1 X73.825 Y172.293 E35.43807
G1 X73.106 Y172.019 E35.47389
G1 X72.42 Y171.672 E35.50969
G1 X71.773 Y171.256 E35.54551
G1 X71.173 Y170.775 E35.58132
G1 X70.863 Y170.483 E35.60115
G1 X70.746 Y170.366 E35.60885
G1 X70.232 Y169.794 E35.64466
G1 X69.779 Y169.172 E35.68049
G1 X69.393 Y168.507 E35.71629
G1 X69.078 Y167.805 E35.75212
G1 X68.838 Y167.074 E35.78795
G1 X68.675 Y166.323 E35.82373
G1 X68.591 Y165.558 E35.85957
G1 X68.579 Y165.133 E35.87936
G1 X68.579 Y134.867 E37.28868
G1 X68.619 Y134.099 E37.32449
G1 X68.738 Y133.339 E37.36031
G1 X68.936 Y132.596 E37.39611
G1 X69.21 Y131.877 E37.43194
G1 X69.557 Y131.191 E37.46774
G1 X69.973 Y130.544 E37.50355
G1 X70.454 Y129.944 E37.53936
G1 X70.746 Y129.634 E37.55919
G1 X70.863 Y129.517 E37.5669
G1 X71.435 Y129.003 E37.6027
G1 X72.057 Y128.55 E37.63853
G1 X72.722 Y128.164 E37.67434
G0 F6000 X72.959 Y128.492
G1 F1200 X73.645 Y128.193 E37.70918
G1 X74.359 Y127.969 E37.74403
G1 X75.092 Y127.822 E37.77884
G1 X76.096 Y127.75 E37.82571
G1 X223.904 Y127.75 E44.70827
G1 X224.651 Y127.79 E44.7431
G1 X225.389 Y127.909 E44.77791
G1 X226.111 Y128.107 E44.81277
G1 X226.807 Y128.38 E44.84758
G1 X227.47 Y128.727 E44.88243
G1 X228.093 Y129.142 E44.91728
G1 X228.854 Y129.8 E44.96413
G1 X228.971 Y129.917 E44.97183
G1 X229.471 Y130.474 E45.00669
G1 X229.908 Y131.08 E45.04148
G1 X230.279 Y131.73 E45.07633
G1 X230.578 Y132.416 E45.11117
G1 X230.802 Y133.13 E45.14602
G1 X230.949 Y133.863 E45.18083
G1 X231.021 Y134.867 E45.2277
G1 X231.021 Y165.133 E46.63701
G1 X230.981 Y165.88 E46.67184
G1 X230.862 Y166.618 E46.70665
G1 X230.664 Y167.34 E46.74151
G1 X230.391 Y168.036 E46.77632
G1 X230.044 Y168.699 E46.81117
G1 X229.629 Y169.322 E46.84603
G1 X228.971 Y170.083 E46.89287
G1 X228.854 Y170.2 E46.90057
G1 X228.297 Y170.7 E46.93543
G1 X227.691 Y171.137 E46.97022
G1 X227.041 Y171.508 E47.00507
G1 X226.355 Y171.807 E47.03991
G1 X225.641 Y172.031 E47.07476
G1 X224.908 Y172.178 E47.10957
G1 X223.904 Y172.25 E47.15644
G1 X76.096 Y172.25 E54.039
G1 X75.349 Y172.21 E54.07383
G1 X74.611 Y172.091 E54.10864
G1 X73.889 Y171.893 E54.1435
G1 X73.193 Y171.62 E54.17831
G1 X72.53 Y171.273 E54.21316
G1 X71.907 Y170.858 E54.24801
G1 X71.146 Y170.2 E54.29486
G1 X71.029 Y170.083 E54.30256
G1 X70.529 Y169.526 E54.33742
G1 X70.092 Y168.92 E54.37221
G1 X69.721 Y168.27 E54.40706
G1 X69.422 Y167.584 E54.4419
G1 X69.198 Y166.87 E54.47675
G1 X69.051 Y166.137 E54.51156
G1 X68.979 Y165.133 E54.55843
G1 X68.979 Y134.867 E55.96774
G1 X69.019 Y134.12 E56.00257
G1 X69.138 Y133.382 E56.03738
G1 X69.336 Y132.66 E56.07224
G1 X69.609 Y131.964 E56.10705
G1 X69.956 Y131.301 E56.1419
G1 X70.371 Y130.678 E56.17676
G1 X71.029 Y129.917 E56.2236
G1 X71.146 Y129.8 E56.23131
G1 X71.703 Y129.3 E56.26616
G1 X72.309 Y128.863 E56.30095
G1 X72.959 Y128.492 E56.3358
G0 F6000 X73.195 Y128.822
G1 F1200 X73.864 Y128.539 E56.36962
G1 X74.56 Y128.331 E56.40345
G1 X75.275 Y128.201 E56.43729
G1 X76.096 Y128.15 E56.47559
G1 X223.904 Y128.15 E63.35815
G1 X224.629 Y128.19 E63.39196
G1 X225.346 Y128.309 E63.4258
G1 X226.045 Y128.507 E63.45963
G1 X226.718 Y128.78 E63.49345
G1 X227.357 Y129.125 E63.52726
G1 X227.954 Y129.539 E63.56109
G1 X228.571 Y130.083 E63.59939
G1 X228.688 Y130.2 E63.6071
G1 X229.172 Y130.741 E63.6409
G1 X229.595 Y131.332 E63.67474
G1 X229.949 Y131.966 E63.70855
G1 X230.232 Y132.635 E63.74238
G1 X230.44 Y133.331 E63.7762
G1 X230.57 Y134.046 E63.81004
G1 X230.621 Y134.867 E63.84835
G1 X230.621 Y165.133 E65.25766
G1 X230.581 Y165.858 E65.29147
G1 X230.462 Y166.575 E65.32531
G1 X230.264 Y167.274 E65.35914
G1 X229.991 Y167.947 E65.39296
G1 X229.646 Y168.586 E65.42677
G1 X229.232 Y169.183 E65.4606
G1 X228.688 Y169.8 E65.4989
G1 X228.571 Y169.917 E65.50661
G1 X228.03 Y170.401 E65.54041
G1 X227.439 Y170.824 E65.57425
G1 X226.805 Y171.178 E65.60806
G1 X226.136 Y171.461 E65.64189
G1 X225.44 Y171.669 E65.67571
G1 X224.725 Y171.799 E65.70955
G1 X223.904 Y171.85 E65.74785
G1 X76.096 Y171.85 E72.63041
G1 X75.371 Y171.81 E72.66422
G1 X74.654 Y171.691 E72.69807
G1 X73.955 Y171.493 E72.7319
G1 X73.282 Y171.22 E72.76571
G1 X72.643 Y170.875 E72.79953
G1 X72.046 Y170.461 E72.83336
G1 X71.429 Y169.917 E72.87166
G1 X71.312 Y169.8 E72.87936
G1 X70.828 Y169.259 E72.91317
G1 X70.405 Y168.668 E72.94701
G1 X70.051 Y168.034 E72.98082
G1 X69.768 Y167.365 E73.01464
G1 X69.56 Y166.669 E73.04847
G1 X69.43 Y165.954 E73.08231
G1 X69.379 Y165.133 E73.12061
G1 X69.379 Y134.867 E74.52992
G1 X69.419 Y134.142 E74.56373
G1 X69.538 Y133.425 E74.59758
G1 X69.736 Y132.726 E74.6314
G1 X70.009 Y132.053 E74.66522
G1 X70.354 Y131.414 E74.69904
G1 X70.768 Y130.817 E74.73287
G1 X71.312 Y130.2 E74.77117
G1 X71.429 Y130.083 E74.77887
G1 X71.97 Y129.599 E74.81267
G1 X72.561 Y129.176 E74.84652
G1 X73.195 Y128.822 E74.88033
G0 F6000 X73.43 Y129.153
G1 F1200 X74.081 Y128.886 E74.91309
G1 X74.759 Y128.696 E74.94588
G1 X75.454 Y128.583 E74.97867
G1 X76.096 Y128.55 E75.0086
G1 X223.904 Y128.55 E81.89116
G1 X224.607 Y128.59 E81.92395
G1 X225.301 Y128.709 E81.95673
G1 X225.976 Y128.907 E81.98949
G1 X226.625 Y129.179 E82.02226
G1 X227.239 Y129.524 E82.05505
G1 X227.81 Y129.935 E82.08781
G1 X228.288 Y130.366 E82.11778
G1 X228.405 Y130.483 E82.12548
G1 X228.874 Y131.008 E82.15826
G1 X229.28 Y131.583 E82.19104
G1 X229.618 Y132.201 E82.22384
G1 X229.885 Y132.852 E82.2566
G1 X230.075 Y133.53 E82.28939
G1 X230.188 Y134.225 E82.32218
G1 X230.221 Y134.867 E82.35211
G1 X230.221 Y165.133 E83.76142
G1 X230.181 Y165.836 E83.79421
G1 X230.062 Y166.53 E83.827
G1 X229.864 Y167.205 E83.85975
G1 X229.592 Y167.854 E83.89252
G1 X229.247 Y168.468 E83.92531
G1 X228.836 Y169.039 E83.95807
G1 X228.405 Y169.517 E83.98804
G1 X228.288 Y169.634 E83.99575
G1 X227.763 Y170.103 E84.02853
G1 X227.188 Y170.509 E84.0613
G1 X226.57 Y170.847 E84.0941
G1 X225.919 Y171.114 E84.12687
G1 X225.241 Y171.304 E84.15965
G1 X224.546 Y171.417 E84.19244
G1 X223.904 Y171.45 E84.22237
G1 X76.096 Y171.45 E91.10493
G1 X75.393 Y171.41 E91.13772
G1 X74.699 Y171.291 E91.17051
G1 X74.024 Y171.093 E91.20326
G1 X73.375 Y170.821 E91.23603
G1 X72.761 Y170.476 E91.26883
G1 X72.19 Y170.065 E91.30159
G1 X71.712 Y169.634 E91.33156
G1 X71.595 Y169.517 E91.33926
G1 X71.126 Y168.992 E91.37204
G1 X70.72 Y168.417 E91.40482
G1 X70.382 Y167.799 E91.43762
G1 X70.115 Y167.148 E91.47038
G1 X69.925 Y166.47 E91.50317
G1 X69.812 Y165.775 E91.53595
G1 X69.779 Y165.133 E91.56589
G1 X69.779 Y134.867 E92.9752
G1 X69.819 Y134.164 E93.00799
G1 X69.938 Y133.47 E93.04077
G1 X70.136 Y132.795 E93.07353
G1 X70.408 Y132.146 E93.1063
G1 X70.753 Y131.532 E93.13909
G1 X71.164 Y130.961 E93.17185
G1 X71.595 Y130.483 E93.20182
G1 X71.712 Y130.366 E93.20952
G1 X72.237 Y129.897 E93.2423
G1 X72.812 Y129.491 E93.27508
G1 X73.43 Y129.153 E93.30788
G0 F6000 X73.662 Y129.485
G1 F1200 X74.296 Y129.236 E93.3396
G1 X74.955 Y129.063 E93.37132
G1 X75.629 Y128.969 E93.40301
G1 X76.096 Y128.95 E93.42477
G1 X223.904 Y128.95 E100.30733
G1 X224.584 Y128.99 E100.33905
G1 X225.254 Y129.109 E100.37074
G1 X225.906 Y129.306 E100.40245
G1 X226.53 Y129.578 E100.43415
G1 X227.118 Y129.922 E100.46587
G1 X227.662 Y130.332 E100.49759
G1 X228.005 Y130.649 E100.51934
G1 X228.122 Y130.766 E100.52704
G1 X228.575 Y131.275 E100.55877
G1 X228.964 Y131.833 E100.59044
G1 X229.286 Y132.433 E100.62215
G1 X229.535 Y133.067 E100.65387
G1 X229.708 Y133.726 E100.68559
G1 X229.802 Y134.4 E100.71728
G1 X229.821 Y134.867 E100.73905
G1 X229.821 Y165.133 E102.14836
G1 X229.781 Y165.813 E102.18008
G1 X229.662 Y166.483 E102.21176
G1 X229.465 Y167.135 E102.24348
G1 X229.193 Y167.759 E102.27517
G1 X228.849 Y168.347 E102.3069
G1 X228.439 Y168.891 E102.33862
G1 X228.122 Y169.234 E102.36036
G1 X228.005 Y169.351 E102.36807
G1 X227.496 Y169.804 E102.3998
G1 X226.938 Y170.193 E102.43147
G1 X226.338 Y170.515 E102.46318
G1 X225.704 Y170.764 E102.49489
G1 X225.045 Y170.937 E102.52662
G1 X224.371 Y171.031 E102.55831
G1 X223.904 Y171.05 E102.58007
G1 X76.096 Y171.05 E109.46263
G1 X75.416 Y171.01 E109.49435
G1 X74.746 Y170.891 E109.52604
G1 X74.094 Y170.694 E109.55775
G1 X73.47 Y170.422 E109.58945
G1 X72.882 Y170.078 E109.62117
G1 X72.338 Y169.668 E109.65289
G1 X71.995 Y169.351 E109.67464
G1 X71.878 Y169.234 E109.68234
G1 X71.425 Y168.725 E109.71407
G1 X71.036 Y168.167 E109.74574
G1 X70.714 Y167.567 E109.77745
G1 X70.465 Y166.933 E109.80917
G1 X70.292 Y166.274 E109.84089
G1 X70.198 Y165.6 E109.87258
G1 X70.179 Y165.133 E109.89434
G1 X70.179 Y134.867 E111.30366
G1 X70.219 Y134.187 E111.33537
G1 X70.338 Y133.517 E111.36706
G1 X70.535 Y132.865 E111.39878
G1 X70.807 Y132.241 E111.43047
G1 X71.151 Y131.653 E111.46219
G1 X71.561 Y131.109 E111.49391
G1 X71.878 Y130.766 E111.51566
G1 X71.995 Y130.649 E111.52337
G1 X72.504 Y130.196 E111.55509
G1 X73.062 Y129.807 E111.58677
G1 X73.662 Y129.485 E111.61847
G0 F6000 X73.311 Y130.124
G1 F1200 X73.893 Y129.82 E111.64905
G1 X74.508 Y129.589 E111.67964
G1 X75.147 Y129.434 E111.71026
G1 X76.096 Y129.35 E111.75462
G1 X223.904 Y129.35 E118.63718
G1 X224.56 Y129.39 E118.66778
G1 X225.206 Y129.509 E118.69837
G1 X225.833 Y129.706 E118.72897
G1 X226.431 Y129.978 E118.75956
G1 X226.992 Y130.32 E118.79016
G1 X227.722 Y130.932 E118.83451
G1 X227.839 Y131.049 E118.84222
G1 X228.275 Y131.541 E118.87283
G1 X228.647 Y132.082 E118.9034
G1 X228.951 Y132.664 E118.93397
G1 X229.182 Y133.279 E118.96457
G1 X229.337 Y133.918 E118.99518
G1 X229.421 Y134.867 E119.03954
G1 X229.421 Y165.133 E120.44886
G1 X229.381 Y165.789 E120.47946
G1 X229.262 Y166.435 E120.51005
G1 X229.065 Y167.062 E120.54065
G1 X228.793 Y167.66 E120.57124
G1 X228.451 Y168.221 E120.60183
G1 X227.839 Y168.951 E120.64619
G1 X227.722 Y169.068 E120.65389
G1 X227.23 Y169.504 E120.68451
G1 X226.689 Y169.876 E120.71508
G1 X226.107 Y170.18 E120.74565
G1 X225.492 Y170.411 E120.77624
G1 X224.853 Y170.566 E120.80686
G1 X223.904 Y170.65 E120.85122
G1 X76.096 Y170.65 E127.73378
G1 X75.44 Y170.61 E127.76438
G1 X74.794 Y170.491 E127.79497
G1 X74.167 Y170.294 E127.82557
G1 X73.569 Y170.022 E127.85616
G1 X73.008 Y169.68 E127.88676
G1 X72.278 Y169.068 E127.93112
G1 X72.161 Y168.951 E127.93882
G1 X71.725 Y168.459 E127.96943
G1 X71.353 Y167.918 E128
G1 X71.049 Y167.336 E128.03058
G1 X70.818 Y166.721 E128.06117
G1 X70.663 Y166.082 E128.09179
G1 X70.579 Y165.133 E128.13615
G1 X70.579 Y134.867 E129.54546
G1 X70.619 Y134.211 E129.57606
G1 X70.738 Y133.565 E129.60665
G1 X70.935 Y132.938 E129.63725
G1 X71.207 Y132.34 E129.66784
G1 X71.549 Y131.779 E129.69844
G1 X72.161 Y131.049 E129.74279
G1 X72.278 Y130.932 E129.7505
G1 X72.77 Y130.496 E129.78111
G1 X73.311 Y130.124 E129.81168
G0 F6000 X73.558 Y130.442
G1 F1200 X74.122 Y130.156 E129.84113
G1 X74.717 Y129.944 E129.87054
G1 X75.335 Y129.808 E129.9
G1 X76.096 Y129.75 E129.93554
G1 X223.904 Y129.75 E136.8181
G1 X224.535 Y129.79 E136.84754
G1 X225.156 Y129.909 E136.87698
G1 X225.756 Y130.106 E136.90639
G1 X226.328 Y130.377 E136.93586
G1 X226.86 Y130.717 E136.96526
G1 X227.44 Y131.214 E137.00083
G1 X227.557 Y131.331 E137.00853
G1 X227.974 Y131.806 E137.03797
G1 X228.329 Y132.329 E137.0674
G1 X228.615 Y132.893 E137.09684
G1 X228.827 Y133.488 E137.12626
G1 X228.963 Y134.106 E137.15572
G1 X229.021 Y134.867 E137.19126
G1 X229.021 Y165.133 E138.60057
G1 X228.981 Y165.764 E138.63001
G1 X228.862 Y166.385 E138.65945
G1 X228.665 Y166.985 E138.68886
G1 X228.394 Y167.557 E138.71833
G1 X228.054 Y168.089 E138.74773
G1 X227.557 Y168.669 E138.7833
G1 X227.44 Y168.786 E138.791
G1 X226.965 Y169.203 E138.82044
G1 X226.442 Y169.558 E138.84987
G1 X225.878 Y169.844 E138.87931
