;FLAVOR:Marlin
;TIME:2431
;Filament used: 2.31275m
;Layer height: 0.28
;MINX:126.95
;MINY:122.95
;MINZ:0.28
;MAXX:173.05
;MAXY:177.05
;MAXZ:15.96
;Generated with Cura_SteamEngine 4.9.0
M140 S60
M105
M190 S60
M104 S200
M105
M109 S200
M82 ;absolute extrusion mode
M201 X500.00 Y500.00 Z100.00 E5000.00 ;Setup machine max acceleration
M203 X500.00 Y500.00 Z10.00 E50.00 ;Setup machine max feedrate
M204 P500.00 R1000.00 T500.00 ;Setup Print/Retract/Travel acceleration
M205 X8.00 Y8.00 Z0.40 E5.00 ;Setup Jerk
M220 S100 ;Reset Feedrate
M221 S100 ;Reset Flowrate

G28 ;Home
G29 ;Auto bed Level

G92 E0 ;Reset Extruder
G1 Z2.0 F3000 ;Move Z Axis up
G1 X10.1 Y20 Z0.28 F5000.0 ;Move to start position
G1 X10.1 Y200.0 Z0.28 F1500.0 E15 ;Draw the first line
G1 X10.4 Y200.0 Z0.28 F5000.0 ;Move to side a little
G1 X10.4 Y20 Z0.28 F1500.0 E30 ;Draw the second line
G92 E0 ;Reset Extruder
G1 Z2.0 F3000 ;Move Z Axis up

G92 E0
G92 E0
G1 F1500 E-6.5
;LAYER_COUNT:57
;LAYER:0
M107
G0 F6000 X129.235 Y125.352 Z0.28
;TYPE:SKIRT
G1 F1500 E0
G1 F1200 X129.352 Y125.235 E0.0077
G1 X129.938 Y124.705 E0.0445
G1 X130.574 Y124.238 E0.08124
G1 X131.254 Y123.837 E0.118
G1 X131.972 Y123.507 E0.15479
G1 X132.719 Y123.252 E0.19155
G1 X133.488 Y123.073 E0.22831
G1 X134.272 Y122.973 E0.26511
G1 X134.867 Y122.95 E0.29284
G1 X165.133 Y122.95 E1.70215
G1 X165.922 Y122.99 E1.73894
G1 X166.702 Y123.109 E1.77568
G1 X167.467 Y123.307 E1.81247
G1 X168.207 Y123.581 E1.84922
G1 X168.916 Y123.929 E1.88599
G1 X169.587 Y124.347 E1.9228
G1 X170.211 Y124.83 E1.95955
G1 X170.648 Y125.235 E1.98729
G1 X170.765 Y125.352 E1.995
G1 X171.295 Y125.938 E2.03179
G1 X171.762 Y126.574 E2.06853
G1 X172.163 Y127.254 E2.10529
G1 X172.493 Y127.972 E2.14208
G1 X172.748 Y128.719 E2.17884
G1 X172.927 Y129.488 E2.2156
G1 X173.027 Y130.272 E2.2524
G1 X173.05 Y130.867 E2.28013
G1 X173.05 Y169.133 E4.06196
G1 X173.01 Y169.922 E4.09874
G1 X172.891 Y170.702 E4.13548
G1 X172.693 Y171.467 E4.17228
G1 X172.419 Y172.207 E4.20902
G1 X172.071 Y172.916 E4.2458
G1 X171.653 Y173.587 E4.28261
G1 X171.17 Y174.211 E4.31935
G1 X170.765 Y174.648 E4.3471
G1 X170.648 Y174.765 E4.3548
G1 X170.062 Y175.295 E4.39159
G1 X169.426 Y175.762 E4.42833
G1 X168.746 Y176.163 E4.46509
G1 X168.028 Y176.493 E4.50189
G1 X167.281 Y176.748 E4.53864
G1 X166.512 Y176.927 E4.57541
G1 X165.728 Y177.027 E4.61221
G1 X165.133 Y177.05 E4.63994
G1 X134.867 Y177.05 E6.04925
G1 X134.078 Y177.01 E6.08603
G1 X133.298 Y176.891 E6.12277
G1 X132.533 Y176.693 E6.15957
G1 X131.793 Y176.419 E6.19631
G1 X131.084 Y176.071 E6.23309
G1 X130.413 Y175.653 E6.2699
G1 X129.789 Y175.17 E6.30664
G1 X129.352 Y174.765 E6.33439
G1 X129.235 Y174.648 E6.34209
G1 X128.705 Y174.062 E6.37888
G1 X128.238 Y173.426 E6.41563
G1 X127.837 Y172.746 E6.45238
G1 X127.507 Y172.028 E6.48918
G1 X127.252 Y171.281 E6.52593
G1 X127.073 Y170.512 E6.5627
G1 X126.973 Y169.728 E6.5995
G1 X126.95 Y169.133 E6.62723
G1 X126.95 Y130.867 E8.40905
G1 X126.99 Y130.078 E8.44584
G1 X127.109 Y129.298 E8.48258
G1 X127.307 Y128.533 E8.51938
G1 X127.581 Y127.793 E8.55612
G1 X127.929 Y127.084 E8.5929
G1 X128.347 Y126.413 E8.62971
G1 X128.83 Y125.789 E8.66645
G1 X129.235 Y125.352 E8.69419
G0 F6000 X129.517 Y125.634
G1 F1200 X129.634 Y125.517 E8.7019
G1 X130.206 Y125.003 E8.73771
G1 X130.828 Y124.55 E8.77354
G1 X131.493 Y124.164 E8.80934
G1 X132.195 Y123.849 E8.84517
G1 X132.926 Y123.609 E8.88099
G1 X133.677 Y123.446 E8.91678
G1 X134.442 Y123.362 E8.95261
G1 X134.867 Y123.35 E8.97241
G1 X165.133 Y123.35 E10.38172
G1 X165.901 Y123.39 E10.41753
G1 X166.661 Y123.509 E10.45335
G1 X167.404 Y123.707 E10.48916
G1 X168.123 Y123.981 E10.52499
G1 X168.809 Y124.328 E10.56078
G1 X169.456 Y124.744 E10.5966
G1 X170.056 Y125.225 E10.63241
G1 X170.366 Y125.517 E10.65224
G1 X170.483 Y125.634 E10.65994
G1 X170.997 Y126.206 E10.69575
G1 X171.45 Y126.828 E10.73158
G1 X171.836 Y127.493 E10.76739
G1 X172.151 Y128.195 E10.80321
G1 X172.391 Y128.926 E10.83904
G1 X172.554 Y129.677 E10.87482
G1 X172.638 Y130.442 E10.91066
G1 X172.65 Y130.867 E10.93046
G1 X172.65 Y169.133 E12.71228
G1 X172.61 Y169.901 E12.74809
G1 X172.491 Y170.661 E12.78391
G1 X172.293 Y171.404 E12.81972
G1 X172.019 Y172.123 E12.85554
G1 X171.672 Y172.809 E12.89134
G1 X171.256 Y173.456 E12.92716
G1 X170.775 Y174.056 E12.96297
G1 X170.483 Y174.366 E12.9828
G1 X170.366 Y174.483 E12.9905
G1 X169.794 Y174.997 E13.02631
G1 X169.172 Y175.45 E13.06214
G1 X168.507 Y175.836 E13.09794
G1 X167.805 Y176.151 E13.13377
G1 X167.074 Y176.391 E13.1696
G1 X166.323 Y176.554 E13.20538
G1 X165.558 Y176.638 E13.24122
G1 X165.133 Y176.65 E13.26101
G1 X134.867 Y176.65 E14.67033
G1 X134.099 Y176.61 E14.70614
G1 X133.339 Y176.491 E14.74196
G1 X132.596 Y176.293 E14.77776
G1 X131.877 Y176.019 E14.81359
G1 X131.191 Y175.672 E14.84939
G1 X130.544 Y175.256 E14.8852
G1 X129.944 Y174.775 E14.92101
G1 X129.634 Y174.483 E14.94084
G1 X129.517 Y174.366 E14.94855
G1 X129.003 Y173.794 E14.98435
G1 X128.55 Y173.172 E15.02018
G1 X128.164 Y172.507 E15.05599
G1 X127.849 Y171.805 E15.09182
G1 X127.609 Y171.074 E15.12764
G1 X127.446 Y170.323 E15.16343
G1 X127.362 Y169.558 E15.19926
G1 X127.35 Y169.133 E15.21906
G1 X127.35 Y130.867 E17.00088
G1 X127.39 Y130.099 E17.03669
G1 X127.509 Y129.339 E17.07251
G1 X127.707 Y128.596 E17.10832
G1 X127.981 Y127.877 E17.14415
G1 X128.328 Y127.191 E17.17994
G1 X128.744 Y126.544 E17.21576
G1 X129.225 Y125.944 E17.25157
G1 X129.517 Y125.634 E17.2714
G0 F6000 X129.8 Y125.917
G1 F1200 X129.917 Y125.8 E17.2791
G1 X130.474 Y125.3 E17.31396
G1 X131.08 Y124.863 E17.34875
G1 X131.73 Y124.492 E17.3836
G1 X132.416 Y124.193 E17.41844
G1 X133.13 Y123.969 E17.45329
G1 X133.863 Y123.822 E17.4881
G1 X134.867 Y123.75 E17.53497
G1 X165.133 Y123.75 E18.94428
G1 X165.88 Y123.79 E18.97911
G1 X166.618 Y123.909 E19.01392
G1 X167.34 Y124.107 E19.04878
G1 X168.036 Y124.38 E19.08359
G1 X168.699 Y124.727 E19.11844
G1 X169.322 Y125.142 E19.1533
G1 X170.083 Y125.8 E19.20014
G1 X170.2 Y125.917 E19.20785
G1 X170.7 Y126.474 E19.2427
G1 X171.137 Y127.08 E19.27749
G1 X171.508 Y127.73 E19.31234
G1 X171.807 Y128.416 E19.34718
G1 X172.031 Y129.13 E19.38203
G1 X172.178 Y129.863 E19.41684
G1 X172.25 Y130.867 E19.46371
G1 X172.25 Y169.133 E21.24553
G1 X172.21 Y169.88 E21.28037
G1 X172.091 Y170.618 E21.31518
G1 X171.893 Y171.34 E21.35004
G1 X171.62 Y172.036 E21.38485
G1 X171.273 Y172.699 E21.41969
G1 X170.858 Y173.322 E21.45455
G1 X170.2 Y174.083 E21.5014
G1 X170.083 Y174.2 E21.5091
G1 X169.526 Y174.7 E21.54395
G1 X168.92 Y175.137 E21.57874
G1 X168.27 Y175.508 E21.61359
G1 X167.584 Y175.807 E21.64844
G1 X166.87 Y176.031 E21.68328
G1 X166.137 Y176.178 E21.71809
G1 X165.133 Y176.25 E21.76496
G1 X134.867 Y176.25 E23.17428
G1 X134.12 Y176.21 E23.20911
G1 X133.382 Y176.091 E23.24392
G1 X132.66 Y175.893 E23.27878
G1 X131.964 Y175.62 E23.31359
G1 X131.301 Y175.273 E23.34844
G1 X130.678 Y174.858 E23.38329
G1 X129.917 Y174.2 E23.43014
G1 X129.8 Y174.083 E23.43784
G1 X129.3 Y173.526 E23.47269
G1 X128.863 Y172.92 E23.50748
G1 X128.492 Y172.27 E23.54233
G1 X128.193 Y171.584 E23.57718
G1 X127.969 Y170.87 E23.61202
G1 X127.822 Y170.137 E23.64684
G1 X127.75 Y169.133 E23.69371
G1 X127.75 Y130.867 E25.47553
G1 X127.79 Y130.12 E25.51036
G1 X127.909 Y129.382 E25.54517
G1 X128.107 Y128.66 E25.58003
G1 X128.38 Y127.964 E25.61485
G1 X128.727 Y127.301 E25.64969
G1 X129.142 Y126.678 E25.68455
G1 X129.8 Y125.917 E25.73139
G0 F6000 X130.083 Y126.2
G1 F1200 X130.2 Y126.083 E25.7391
G1 X130.741 Y125.599 E25.7729
G1 X131.332 Y125.176 E25.80674
G1 X131.966 Y124.822 E25.84055
G1 X132.635 Y124.539 E25.87438
G1 X133.331 Y124.331 E25.9082
G1 X134.046 Y124.201 E25.94204
G1 X134.867 Y124.15 E25.98034
G1 X165.133 Y124.15 E27.38965
G1 X165.858 Y124.19 E27.42346
G1 X166.575 Y124.309 E27.45731
G1 X167.274 Y124.507 E27.49114
G1 X167.947 Y124.78 E27.52495
G1 X168.586 Y125.125 E27.55877
G1 X169.183 Y125.539 E27.5926
G1 X169.8 Y126.083 E27.6309
G1 X169.917 Y126.2 E27.6386
G1 X170.401 Y126.741 E27.67241
G1 X170.824 Y127.332 E27.70625
G1 X171.178 Y127.966 E27.74006
G1 X171.461 Y128.635 E27.77388
G1 X171.669 Y129.331 E27.80771
G1 X171.799 Y130.046 E27.84155
G1 X171.85 Y130.867 E27.87985
G1 X171.85 Y169.133 E29.66168
G1 X171.81 Y169.858 E29.69549
G1 X171.691 Y170.575 E29.72933
G1 X171.493 Y171.274 E29.76316
G1 X171.22 Y171.947 E29.79698
G1 X170.875 Y172.586 E29.83079
G1 X170.461 Y173.183 E29.86462
G1 X169.917 Y173.8 E29.90292
G1 X169.8 Y173.917 E29.91063
G1 X169.259 Y174.401 E29.94443
G1 X168.668 Y174.824 E29.97827
G1 X168.034 Y175.178 E30.01208
G1 X167.365 Y175.461 E30.04591
G1 X166.669 Y175.669 E30.07973
G1 X165.954 Y175.799 E30.11357
G1 X165.133 Y175.85 E30.15187
G1 X134.867 Y175.85 E31.56118
G1 X134.142 Y175.81 E31.595
G1 X133.425 Y175.691 E31.62884
G1 X132.726 Y175.493 E31.66267
G1 X132.053 Y175.22 E31.69649
G1 X131.414 Y174.875 E31.7303
G1 X130.817 Y174.461 E31.76413
G1 X130.2 Y173.917 E31.80243
G1 X130.083 Y173.8 E31.81014
G1 X129.599 Y173.259 E31.84394
G1 X129.176 Y172.668 E31.87778
G1 X128.822 Y172.034 E31.91159
G1 X128.539 Y171.365 E31.94541
G1 X128.331 Y170.669 E31.97924
G1 X128.201 Y169.954 E32.01308
G1 X128.15 Y169.133 E32.05138
G1 X128.15 Y130.867 E33.83321
G1 X128.19 Y130.142 E33.86702
G1 X128.309 Y129.425 E33.90086
G1 X128.507 Y128.726 E33.93469
G1 X128.78 Y128.053 E33.96851
G1 X129.125 Y127.414 E34.00232
G1 X129.539 Y126.817 E34.03615
G1 X130.083 Y126.2 E34.07445
G0 F6000 X130.366 Y126.483
G1 F1200 X130.483 Y126.366 E34.08216
G1 X131.008 Y125.897 E34.11494
G1 X131.583 Y125.491 E34.14771
G1 X132.201 Y125.153 E34.18051
G1 X132.852 Y124.886 E34.21328
G1 X133.53 Y124.696 E34.24606
G1 X134.225 Y124.583 E34.27885
G1 X134.867 Y124.55 E34.30878
G1 X165.133 Y124.55 E35.7181
G1 X165.836 Y124.59 E35.75088
G1 X166.53 Y124.709 E35.78367
G1 X167.205 Y124.907 E35.81643
G1 X167.854 Y125.179 E35.84919
G1 X168.468 Y125.524 E35.88199
G1 X169.039 Y125.935 E35.91475
G1 X169.517 Y126.366 E35.94472
G1 X169.634 Y126.483 E35.95242
G1 X170.103 Y127.008 E35.9852
G1 X170.509 Y127.583 E36.01798
G1 X170.847 Y128.201 E36.05078
G1 X171.114 Y128.852 E36.08354
G1 X171.304 Y129.53 E36.11633
G1 X171.417 Y130.225 E36.14911
G1 X171.45 Y130.867 E36.17905
G1 X171.45 Y169.133 E37.96087
G1 X171.41 Y169.836 E37.99366
G1 X171.291 Y170.53 E38.02645
G1 X171.093 Y171.205 E38.0592
G1 X170.821 Y171.854 E38.09197
G1 X170.476 Y172.468 E38.12476
G1 X170.065 Y173.039 E38.15752
G1 X169.634 Y173.517 E38.18749
G1 X169.517 Y173.634 E38.1952
G1 X168.992 Y174.103 E38.22798
G1 X168.417 Y174.509 E38.26076
G1 X167.799 Y174.847 E38.29355
G1 X167.148 Y175.114 E38.32632
G1 X166.47 Y175.304 E38.3591
G1 X165.775 Y175.417 E38.39189
G1 X165.133 Y175.45 E38.42183
G1 X134.867 Y175.45 E39.83114
G1 X134.164 Y175.41 E39.86393
G1 X133.47 Y175.291 E39.89671
G1 X132.795 Y175.093 E39.92947
G1 X132.146 Y174.821 E39.96223
G1 X131.532 Y174.476 E39.99503
G1 X130.961 Y174.065 E40.02779
G1 X130.483 Y173.634 E40.05776
G1 X130.366 Y173.517 E40.06546
G1 X129.897 Y172.992 E40.09824
G1 X129.491 Y172.417 E40.13102
G1 X129.153 Y171.799 E40.16382
G1 X128.886 Y171.148 E40.19658
G1 X128.696 Y170.47 E40.22937
G1 X128.583 Y169.775 E40.26216
G1 X128.55 Y169.133 E40.29209
G1 X128.55 Y130.867 E42.07391
G1 X128.59 Y130.164 E42.1067
G1 X128.709 Y129.47 E42.13949
G1 X128.907 Y128.795 E42.17224
G1 X129.179 Y128.146 E42.20501
G1 X129.524 Y127.532 E42.23781
G1 X129.935 Y126.961 E42.27057
G1 X130.366 Y126.483 E42.30054
G0 F6000 X130.649 Y126.766
G1 F1200 X130.766 Y126.649 E42.30824
G1 X131.275 Y126.196 E42.33997
G1 X131.833 Y125.807 E42.37164
G1 X132.433 Y125.485 E42.40335
G1 X133.067 Y125.236 E42.43507
G1 X133.726 Y125.063 E42.46679
G1 X134.4 Y124.969 E42.49848
G1 X134.867 Y124.95 E42.52024
G1 X165.133 Y124.95 E43.92956
G1 X165.813 Y124.99 E43.96127
G1 X166.483 Y125.109 E43.99296
G1 X167.135 Y125.306 E44.02468
G1 X167.759 Y125.578 E44.05637
G1 X168.347 Y125.922 E44.08809
G1 X168.891 Y126.332 E44.11981
G1 X169.234 Y126.649 E44.14156
G1 X169.351 Y126.766 E44.14926
G1 X169.804 Y127.275 E44.18099
G1 X170.193 Y127.833 E44.21267
G1 X170.515 Y128.433 E44.24437
G1 X170.764 Y129.067 E44.27609
G1 X170.937 Y129.726 E44.30782
G1 X171.031 Y130.4 E44.3395
G1 X171.05 Y130.867 E44.36127
G1 X171.05 Y169.133 E46.14309
G1 X171.01 Y169.813 E46.17481
G1 X170.891 Y170.483 E46.2065
G1 X170.694 Y171.135 E46.23821
G1 X170.422 Y171.759 E46.26991
G1 X170.078 Y172.347 E46.30163
G1 X169.668 Y172.891 E46.33335
G1 X169.351 Y173.234 E46.3551
G1 X169.234 Y173.351 E46.3628
G1 X168.725 Y173.804 E46.39453
G1 X168.167 Y174.193 E46.42621
G1 X167.567 Y174.515 E46.45791
G1 X166.933 Y174.764 E46.48963
G1 X166.274 Y174.937 E46.52136
G1 X165.6 Y175.031 E46.55304
G1 X165.133 Y175.05 E46.57481
G1 X134.867 Y175.05 E47.98412
G1 X134.187 Y175.01 E48.01584
G1 X133.517 Y174.891 E48.04752
G1 X132.865 Y174.694 E48.07924
G1 X132.241 Y174.422 E48.11093
G1 X131.653 Y174.078 E48.14266
G1 X131.109 Y173.668 E48.17438
G1 X130.766 Y173.351 E48.19612
G1 X130.649 Y173.234 E48.20383
G1 X130.196 Y172.725 E48.23556
G1 X129.807 Y172.167 E48.26723
G1 X129.485 Y171.567 E48.29894
G1 X129.236 Y170.933 E48.33065
G1 X129.063 Y170.274 E48.36238
G1 X128.969 Y169.6 E48.39407
G1 X128.95 Y169.133 E48.41583
G1 X128.95 Y130.867 E50.19766
G1 X128.99 Y130.187 E50.22938
G1 X129.109 Y129.517 E50.26106
G1 X129.306 Y128.865 E50.29278
G1 X129.578 Y128.241 E50.32447
G1 X129.922 Y127.653 E50.35619
G1 X130.332 Y127.109 E50.38791
G1 X130.649 Y126.766 E50.40966
G0 F6000 X130.932 Y127.049
G1 F1200 X131.049 Y126.932 E50.41737
G1 X131.541 Y126.496 E50.44798
G1 X132.082 Y126.124 E50.47855
G1 X132.664 Y125.82 E50.50912
G1 X133.279 Y125.589 E50.53971
G1 X133.918 Y125.434 E50.57033
G1 X134.867 Y125.35 E50.61469
G1 X165.133 Y125.35 E52.02401
G1 X165.789 Y125.39 E52.05461
G1 X166.435 Y125.509 E52.0852
G1 X167.062 Y125.706 E52.1158
G1 X167.66 Y125.978 E52.14639
G1 X168.221 Y126.32 E52.17698
G1 X168.951 Y126.932 E52.22134
G1 X169.068 Y127.049 E52.22904
G1 X169.504 Y127.541 E52.25965
G1 X169.876 Y128.082 E52.29023
G1 X170.18 Y128.664 E52.3208
G1 X170.411 Y129.279 E52.35139
G1 X170.566 Y129.918 E52.38201
G1 X170.65 Y130.867 E52.42637
G1 X170.65 Y169.133 E54.2082
G1 X170.61 Y169.789 E54.2388
G1 X170.491 Y170.435 E54.26939
G1 X170.294 Y171.062 E54.29999
G1 X170.022 Y171.66 E54.33058
G1 X169.68 Y172.221 E54.36117
G1 X169.068 Y172.951 E54.40553
G1 X168.951 Y173.068 E54.41324
G1 X168.459 Y173.504 E54.44385
G1 X167.918 Y173.876 E54.47442
G1 X167.336 Y174.18 E54.50499
G1 X166.721 Y174.411 E54.53558
G1 X166.082 Y174.566 E54.5662
G1 X165.133 Y174.65 E54.61056
G1 X134.867 Y174.65 E56.01987
G1 X134.211 Y174.61 E56.05048
G1 X133.565 Y174.491 E56.08106
G1 X132.938 Y174.294 E56.11167
G1 X132.34 Y174.022 E56.14226
G1 X131.779 Y173.68 E56.17285
G1 X131.049 Y173.068 E56.21721
G1 X130.932 Y172.951 E56.22491
G1 X130.496 Y172.459 E56.25552
G1 X130.124 Y171.918 E56.2861
G1 X129.82 Y171.336 E56.31667
G1 X129.589 Y170.721 E56.34726
G1 X129.434 Y170.082 E56.37788
G1 X129.35 Y169.133 E56.42224
G1 X129.35 Y130.867 E58.20407
G1 X129.39 Y130.211 E58.23467
G1 X129.509 Y129.565 E58.26525
G1 X129.706 Y128.938 E58.29586
G1 X129.978 Y128.34 E58.32645
G1 X130.32 Y127.779 E58.35704
G1 X130.932 Y127.049 E58.4014
G0 F6000 X131.214 Y127.331
G1 F1200 X131.331 Y127.214 E58.4091
G1 X131.806 Y126.797 E58.43854
G1 X132.329 Y126.442 E58.46797
G1 X132.893 Y126.156 E58.49741
G1 X133.488 Y125.944 E58.52683
G1 X134.106 Y125.808 E58.55629
G1 X134.867 Y125.75 E58.59183
G1 X165.133 Y125.75 E60.00114
G1 X165.764 Y125.79 E60.03058
G1 X166.385 Y125.909 E60.06003
G1 X166.985 Y126.106 E60.08943
G1 X167.557 Y126.377 E60.1189
G1 X168.089 Y126.717 E60.1483
G1 X168.669 Y127.214 E60.18387
G1 X168.786 Y127.331 E60.19157
G1 X169.203 Y127.806 E60.22101
G1 X169.558 Y128.329 E60.25044
G1 X169.844 Y128.893 E60.27988
G1 X170.056 Y129.488 E60.3093
G1 X170.192 Y130.106 E60.33876
G1 X170.25 Y130.867 E60.3743
G1 X170.25 Y169.133 E62.15613
G1 X170.21 Y169.764 E62.18557
G1 X170.091 Y170.385 E62.21501
G1 X169.894 Y170.985 E62.24441
G1 X169.623 Y171.557 E62.27389
G1 X169.283 Y172.089 E62.30329
G1 X168.786 Y172.669 E62.33885
G1 X168.669 Y172.786 E62.34656
G1 X168.194 Y173.203 E62.37599
